!!!!SEGMENT: pl-cz--iii-669--001-010_scigalski-franciszek--missa-in-b-agnus-dei.krn
!!!cenid: 18xx:1115
!!!COM: Ścigalski, Franciszek
!!!COM-rismid: pe30002948
!!!CDT: 1782/01/29-1846/09/27
!!!CNT: Polish
!!!OPR: Missa in B
!!!OTL: Agnus Dei
!!!OMV: 010
!!!PDT:
!!!AGN: Sacred; Mass
!!!SMS-siglum: PL-CZ
!!!SMS-shelfmark: III-669
!!!SMS-shelfwork: 001-010 M
!!!SMS-variant:
!!!SMS-altvar:
!!!NIFC-rismid: 300001314
!!!URL-scan: http://repozytorium.nifc.pl/skany/pl-cz-nut--iii-669
!!!ONB-nifc: UWAGA: części Mszy: Kyrie, Gloria, Qui tollis, Quoniam, Credo, Et incarnatus,
!!!key: E-
**kern	**fba	**dynam	**kern	**dynam	**kern	**dynam	**kern	**dynam	**kern	**text	**kern	**text	**kern	**text	**kern	**text	**kern	**kern	**kern	**dynam	**kern	**kern	**dynam	**kern	**dynam	**kern	**dynam	**kern
*part16	*	*part16	*part15	*part15	*part14	*part14	*part13	*part13	*part12	*part12	*part11	*part11	*part10	*part10	*part9	*part9	*part8	*part7	*part6	*part6	*part5	*part4	*part4	*part3	*part3	*part2	*part2	*part1
*group6	*	*	*group5	*	*group5	*	*group5	*	*group4	*group4	*group4	*group4	*group4	*group4	*group4	*group4	*group3	*group2	*group2	*	*group2	*group1	*	*group1	*	*group1	*	*group1
*staff16	*	*	*staff15	*	*staff14	*	*staff13	*	*staff12	*staff12	*staff11	*staff11	*staff10	*staff10	*staff9	*staff9	*staff8	*staff7	*staff6	*	*staff5	*staff4	*	*staff3	*	*staff2	*	*staff1
*I"Organo	*	*	*I"Alto Viola	*	*I"Violino 2.do	*	*I"Violino. Primo.	*	*I"Baſso!	*	*I"Tenore	*	*I"Alto	*	*I"Canto	*	*I"Tympano in B.F.	*I"Claryino Princy palo	*I"[Corno Sekundo in F]	*	*I"Cornu Prymo in F	*I"Fagotto Oblgato	*	*I"Clarinetto 2do. in B	*	*I"Clarinetto 1mo in B	*	*I"Flauto Obligato.
*I'org	*	*	*I'a-vla	*	*I'vl 2	*	*I'vl 1	*	*I'B	*	*I'T	*	*I'A	*	*I'S	*	*I'timp	*I'clno 1	*I'[cor 2]	*	*I'cor 1	*I'fag	*	*I'cl 2	*	*I'cl 1	*	*I'fl
*Iorgan	*	*	*Iorgan	*	*Ivioln	*	*Ivioln	*	*Ibass	*	*Itenor	*	*Ialto	*	*Isoprn	*	*Itimpa	*Itromp	*Icor	*	*Icor	*Ifagot	*	*Iclars	*	*Iclars	*	*Iflt
*ICklav	*	*	*ICstr	*	*ICstr	*	*ICstr	*	*ICvox	*	*ICvox	*	*ICvox	*	*ICvox	*	*ICidio	*ICbras	*ICbras	*	*ICbras	*ICww	*	*ICww	*	*ICww	*	*ICww
*clefF4	*	*	*clefC3	*	*clefG2	*	*clefG2	*	*clefF4	*	*clefC4	*	*clefC3	*	*clefC1	*	*clefF4	*clefG2	*clefG2	*	*clefG2	*clefF4	*	*clefG2	*	*clefG2	*	*clefG2
*	*	*	*	*	*	*	*	*	*	*	*	*	*	*	*	*	*ITrd1c2	*ITrd1c2	*ITrd5c9	*	*ITrd5c9	*	*	*ITrd1c2	*	*ITrd1c2	*	*
*k[b-e-a-]	*	*	*k[b-e-a-]	*	*k[b-e-a-]	*	*k[b-e-a-]	*	*k[b-e-]	*	*k[a-e-b-]	*	*k[b-e-a-]	*	*k[b-e-a-]	*	*k[b-e-a-]	*k[b-e-a-]	*k[b-e-a-]	*	*k[b-e-a-]	*k[e-b-a-]	*	*k[b-e-a-]	*	*k[b-e-a-]	*	*k[b-e-a-]
*E-:	*	*	*E-:	*	*E-:	*	*E-:	*	*E-:	*	*E-:	*	*E-:	*	*E-:	*	*E-:	*E-:	*E-:	*	*E-:	*E-:	*	*E-:	*	*E-:	*	*E-:
*M3/4	*	*	*M3/4	*	*M3/4	*	*M3/4	*	*M3/4	*	*M3/4	*	*M3/4	*	*M3/4	*	*M3/4	*M3/4	*M3/4	*	*M3/4	*M3/4	*	*M3/4	*	*M3/4	*	*M3/4
=1	=1	=1	=1	=1	=1	=1	=1	=1	=1	=1	=1	=1	=1	=1	=1	=1	=1	=1	=1	=1	=1	=1	=1	=1	=1	=1	=1	=1
*2\right	*	*2\right	*2\right	*2\right	*2\right	*2\right	*2\right	*2\right	*2\right	*2\right	*2\right	*2\right	*2\right	*2\right	*2\right	*2\right	*2\right	*2\right	*2\right	*2\right	*2\right	*2\right	*2\right	*2\right	*2\right	*2\right	*2\right	*2\right
*tremolo	*	*	*tremolo	*	*tremolo	*	*tremolo	*below	*	*	*	*	*	*	*	*	*	*	*	*	*	*	*	*	*	*	*	*
!!LO:TX:t+P;problem:all\left, middle, right:global
!	!	!	!	!	!	!	!	!	!	!	!	!	!	!	!	!	!	!	!LO:TX:t=P:problem:nazwa instrumentu zapisana ołówkiem	!	!	!LO:TX:t=P:problem:kolejność znaków E- BB- AA-	!	!	!	!	!	!
!LO:TX:a:t=Adagio	!	!	!LO:TX:a:t=Adagio:note=podkreślone falowaną linią	!	!LO:TX:a:t=Adagio.	!	!LO:TX:a:t=adagio	!	!LO:TX:a:t=Adagio	!	!LO:TX:a:t=Adagio&colon;	!	!LO:TX:a:t=Adagio	!	!LO:TX:a:t=Adagio	!	!LO:TX:a:t=Tacet.	!LO:TX:a:t=Tacett	!LO:TX:a:t=in Es\nAdagio	!	!LO:TX:a:t=Adagio in Des	!LO:TX:a:t=Adagio:note=podkreślone falowaną linią	!	!LO:TX:a:t=Adagio.	!	!LO:TX:a:t=Adagio.	!	!LO:TX:a:t=Adagio.:note=podkreślone falowaną linią
!	!	!	!	!LO:DY:rj:Bi:t=p&colon;	!	!LO:DY:rj:Bi:t=p.	!	!LO:DY:rj:Bi:t=p.	!	!	!	!	!	!	!	!	!	!	!LO:TX:b:t=8	!	!LO:TX:a:t=8	!LO:TX:a:t=8	!	!LO:TX:a:t=8	!	!LO:TX:a:t=8.	!	!LO:TX:a:t=8.
!	!	!LO:DY:Bi:t=p&colon;	!	!	!	!	!	!	!	!	!	!	!	!	!	!	!	!	!LO:N:vis=00	!	!	!LO:N:vis=00	!	!LO:N:vis=00	!	!LO:N:vis=00	!	!LO:N:vis=00
8B-\L	.	p	8d\L	p	8f/L	p	8b-\L	p	2B-\	A-	2B-\	A-	2f\	A-	2b-\	A-	2.ryy	2.ryy	0.r	.	2.r	0.r	.	0.r	.	0.r	.	0.r
8B-\	.	.	8d\	.	8f/	.	8b-\	.	.	.	.	.	.	.	.	.	.	.	.	.	.	.	.	.	.	.	.	.
8B-\	.	.	8d\	.	8f/	.	8b-\	.	.	.	.	.	.	.	.	.	.	.	.	.	.	.	.	.	.	.	.	.
8B-\J	.	.	8d\	.	8f/	.	8b-\J	.	.	.	.	.	.	.	.	.	.	.	.	.	.	.	.	.	.	.	.	.
*Xtremolo	*	*	*	*	*	*	*Xtremolo	*	*	*	*	*	*	*	*	*	*	*	*	*	*	*	*	*	*	*	*	*
!	!	!	!	!	!	!	!	!	!LO:SIC:v:s=4A-\	!	!	!	!	!	!	!	!	!	!	!	!	!	!	!	!	!	!	!
8A-\L	x x 4	.	8d\	.	8f/	.	8dd\L	.	4A\	-gnus	4B-\	-gnus	4f\	-gnus	4dd\	-gnus	.	.	.	.	.	.	.	.	.	.	.	.
8A-\J	.	.	8d\J	.	8f/J	.	8dd\J	.	.	.	.	.	.	.	.	.	.	.	.	.	.	.	.	.	.	.	.	.
*	*	*	*Xtremolo	*	*Xtremolo	*	*	*	*	*	*	*	*	*	*	*	*	*	*	*	*	*	*	*	*	*	*	*
=2	=2	=2	=2	=2	=2	=2	=2	=2	=2	=2	=2	=2	=2	=2	=2	=2	=2	=2	=2	=2	=2	=2	=2	=2	=2	=2	=2	=2
8G\L	x x 6	.	8e-\L	.	8g/L	.	8ee-\L	.	4G\	De-	4B-\	de-	4g\	de-	4ee-\	de-	2.ryy	2.ryy	.	.	2.r	.	.	.	.	.	.	.
8G\	.	.	8e-\	.	8g/	.	8ee-\	.	.	.	.	.	.	.	.	.	.	.	.	.	.	.	.	.	.	.	.	.
8F\	x x 8	.	8f\	.	8a-/	.	8ff\	.	4F\	-i	4B-\	-i	4a-\	-i	4ff\	-i	.	.	.	.	.	.	.	.	.	.	.	.
8F\	.	.	8f\	.	8a-/	.	8ff\	.	.	.	.	.	.	.	.	.	.	.	.	.	.	.	.	.	.	.	.	.
8E-\	x x 10	.	8g\	.	8b-/	.	8gg\	.	4E-\	qvi	4B-\	qvi	4b-\	qui	4gg\	qui	.	.	.	.	.	.	.	.	.	.	.	.
8E-\J	.	.	8g\J	.	8b-/J	.	8gg\J	.	.	.	.	.	.	.	.	.	.	.	.	.	.	.	.	.	.	.	.	.
=3	=3	=3	=3	=3	=3	=3	=3	=3	=3	=3	=3	=3	=3	=3	=3	=3	=3	=3	=3	=3	=3	=3	=3	=3	=3	=3	=3	=3
!LO:TX:t=P:problem:mixed beam	!	!	!LO:TX:t=P:problem:mixed beam	!	!	!	!	!	!LO:SIC:v:s=4A-\	!	!	!	!	!	!	!	!	!	!	!	!	!	!	!	!	!	!	!
8A-\L	x x 6	.	8a-\L	.	8a-/L	.	8ff\L	.	4A\	tol-	4c\	tol-	4a-\	tol-	4ff\	tol-	2.ryy	2.ryy	.	.	2.r	.	.	.	.	.	.	.
8A-\	.	.	8a-\	.	8a-/	.	8ff\	.	.	.	.	.	.	.	.	.	.	.	.	.	.	.	.	.	.	.	.	.
8B-\	x x 4	.	8b-\	.	8g/	.	8ee-\	.	4B-\	-lis	4B-\	-lis	4g\	-lis	4ee-\	-lis	.	.	.	.	.	.	.	.	.	.	.	.
8B-\	.	.	8b-\	.	8g/	.	8ee-\	.	.	.	.	.	.	.	.	.	.	.	.	.	.	.	.	.	.	.	.	.
8BB-/	x x 3	.	8B-/	.	8f/	.	8dd\	.	4BB-/	pec-	4B-\	pec-	4f\	pec-	4dd\	pec-	.	.	.	.	.	.	.	.	.	.	.	.
8BB-/J	.	.	8B-/J	.	8f/J	.	8dd\J	.	.	.	.	.	.	.	.	.	.	.	.	.	.	.	.	.	.	.	.	.
=4	=4	=4	=4	=4	=4	=4	=4	=4	=4	=4	=4	=4	=4	=4	=4	=4	=4	=4	=4	=4	=4	=4	=4	=4	=4	=4	=4	=4
4E-\	x x 8	.	4E-/	.	4g/	.	4ee-\	.	4E-\	-ca-	4B-\	-ca-	4g\	-ca-	4ee-\	-ca-	2.ryy	2.ryy	.	.	2.r	.	.	.	.	.	.	.
8E-'\L	.	.	8E-/L	.	4g/	.	4ee-\	.	4E-\	-ta	4B-\	-ta	4g\	-ta	4ee-\	-ta	.	.	.	.	.	.	.	.	.	.	.	.
8G'\	.	.	8G/	.	.	.	.	.	.	.	.	.	.	.	.	.	.	.	.	.	.	.	.	.	.	.	.	.
8B-'\	.	.	8B-/	.	4r	.	4r	.	4r	.	4r	.	4r	.	4r	.	.	.	.	.	.	.	.	.	.	.	.	.
8e-'\J	.	.	8e-/J	.	.	.	.	.	.	.	.	.	.	.	.	.	.	.	.	.	.	.	.	.	.	.	.	.
!	!	!	!	!	!LO:LB:g=original	!	!	!	!	!	!	!	!	!	!	!	!	!	!	!	!	!	!	!	!	!	!	!
=5	=5	=5	=5	=5	=5	=5	=5	=5	=5	=5	=5	=5	=5	=5	=5	=5	=5	=5	=5	=5	=5	=5	=5	=5	=5	=5	=5	=5
!	!	!	!	!	!	!	!	!	!	!	!	!	!	!	!	!	!	!	!LO:N:vis=00	!	!	!LO:N:vis=00	!	!LO:N:vis=00	!	!LO:N:vis=00	!	!LO:N:vis=00
8B-\L	.	.	8B-\L	.	8d/L	.	8b-\L	.	4B-\	De-	4B-\	de-	4d\	de-	4b-\	de-	2.ryy	2.ryy	0.r	.	2.r	0.r	.	0.r	.	0.r	.	0.r
8B-\	.	.	8B-\	.	8d/	.	8b-\	.	.	.	.	.	.	.	.	.	.	.	.	.	.	.	.	.	.	.	.	.
8An\	x x 3	.	8c\	.	8e-/	.	8cc\	.	4An\	-i	4B-\	-i	4e-\	-i	4cc\	-i	.	.	.	.	.	.	.	.	.	.	.	.
8A\	.	.	8c\	.	8e-/	.	8cc\	.	.	.	.	.	.	.	.	.	.	.	.	.	.	.	.	.	.	.	.	.
8A-X\	x x 4	.	8d\	.	8f/	.	8dd\	.	4A-X\	qvi	4B-\	qvi	4f\	qui	4dd\	qui	.	.	.	.	.	.	.	.	.	.	.	.
8A-\J	.	.	8d\J	.	8f/J	.	8dd\J	.	.	.	.	.	.	.	.	.	.	.	.	.	.	.	.	.	.	.	.	.
!LO:LB:g=original	!	!	!	!	!	!	!	!	!	!	!LO:LB:g=original	!	!	!	!	!	!	!	!	!	!	!	!	!	!	!	!	!
=6	=6	=6	=6	=6	=6	=6	=6	=6	=6	=6	=6	=6	=6	=6	=6	=6	=6	=6	=6	=6	=6	=6	=6	=6	=6	=6	=6	=6
8G\L	x x 6	.	8e-\L	.	8g/L	.	8ee-\L	.	4G\	tol-	4B-\	tol-	4g\	tol-	4ee-\	tol-	2.ryy	2.ryy	.	.	2.r	.	.	.	.	.	.	.
8G\	x x 8	.	8e-\	.	8g/	.	8ee-\J	.	.	.	.	.	.	.	.	.	.	.	.	.	.	.	.	.	.	.	.	.
!	!	!	!	!	!	!	!LO:LB:g=original	!	!	!	!	!	!	!	!	!	!	!	!	!	!	!	!	!	!	!	!	!
8F\	.	.	8f\	.	8a-/	.	8ff\L	.	4F\	-lis	4B-\	-lis	4a-\	-lis	4ff\	-lis	.	.	.	.	.	.	.	.	.	.	.	.
8F\	.	.	8f\	.	8a-/	.	8ff\	.	.	.	.	.	.	.	.	.	.	.	.	.	.	.	.	.	.	.	.	.
!	!	!	!	!	!	!	!	!	!	!	!	!	!LO:LB:g=original	!	!	!	!	!	!	!	!	!	!	!	!	!	!	!
8E-\	x x 10	.	8g\	.	8b-/	.	8gg\	.	4E-\	pec-	4B-\	pec-	4b-\	pec-	4gg\	pec-	.	.	.	.	.	.	.	.	.	.	.	.
8E-\J	.	.	8g\J	.	8b-/J	.	8gg\J	.	.	.	.	.	.	.	.	.	.	.	.	.	.	.	.	.	.	.	.	.
!	!	!	!	!	!	!	!	!	!LO:LB:g=original	!	!	!	!	!	!	!	!	!	!	!	!	!	!	!	!	!	!	!
=7	=7	=7	=7	=7	=7	=7	=7	=7	=7	=7	=7	=7	=7	=7	=7	=7	=7	=7	=7	=7	=7	=7	=7	=7	=7	=7	=7	=7
*tremolo	*	*	*tremolo	*	*tremolo	*	*tremolo	*	*	*	*	*	*	*	*	*	*	*	*	*	*	*	*	*	*	*	*	*
!	!	!	!	!	!	!	!	!	!LO:SIC:v:s=2A-\	!	!	!	!	!	!	!	!	!	!	!	!	!	!	!	!	!	!	!
8A-\L	x x 6	.	8a-\L	.	8cc\L	.	8ff\L	.	2A\	-ca-	2A-\	-ca-	2cc\	-ca-	2ff\	-ca-	2.ryy	2.ryy	.	.	2.r	.	.	.	.	.	.	.
8A-\	.	.	8a-\	.	8cc\	.	8ff\	.	.	.	.	.	.	.	.	.	.	.	.	.	.	.	.	.	.	.	.	.
8A-\	.	.	8a-\	.	8cc\	.	8ff\	.	.	.	.	.	.	.	.	.	.	.	.	.	.	.	.	.	.	.	.	.
8A-\J	.	.	8a-\J	.	8cc\	.	8ff\J	.	.	.	.	.	.	.	.	.	.	.	.	.	.	.	.	.	.	.	.	.
*Xtremolo	*	*	*Xtremolo	*	*	*	*Xtremolo	*	*	*	*	*	*	*	*	*	*	*	*	*	*	*	*	*	*	*	*	*
8An\L	x x 5	.	8an\L	.	8cc\	.	8ee-\L	.	4An\	-ta	4c\	-ta	4cc\	-ta	4ee-\	-ta	.	.	.	.	.	.	.	.	.	.	.	.
8A\J	.	.	8a\J	.	8cc\J	.	8ee-\J	.	.	.	.	.	.	.	.	.	.	.	.	.	.	.	.	.	.	.	.	.
*	*	*	*	*	*Xtremolo	*	*	*	*	*	*	*	*	*	*	*	*	*	*	*	*	*	*	*	*	*	*	*
=8	=8	=8	=8	=8	=8	=8	=8	=8	=8	=8	=8	=8	=8	=8	=8	=8	=8	=8	=8	=8	=8	=8	=8	=8	=8	=8	=8	=8
4B-\	x x 4	.	4b-\	.	4g/	.	4ee-\	.	4B-\	mun-	4B-\	mun-	4g\	mun-	4ee-\	mun-	2.ryy	2.ryy	.	.	2.r	.	.	.	.	.	.	.
4BB-/	x x 3	.	4B-/	.	4f/	.	4dd\	.	4BB-/	-di	4B-\	-di	4f\	-di	4dd\	-di	.	.	.	.	.	.	.	.	.	.	.	.
4r	.	.	4r	.	4r	.	4r	.	4r	.	4r	.	4r	.	4r	.	.	.	.	.	.	.	.	.	.	.	.	.
!	!	!	!LO:LB:g=original	!	!	!	!	!	!	!	!	!	!	!	!LO:LB:g=original	!	!	!	!	!	!	!	!	!	!	!	!	!
=9	=9	=9	=9	=9	=9	=9	=9||:	=9	=9	=9	=9	=9	=9	=9	=9	=9	=9	=9	=9	=9	=9	=9||:	=9	=9||:	=9	=9	=9	=9
*	*	*	*tremolo	*	*tremolo	*	*	*	*	*	*	*	*	*	*	*	*	*	*	*	*2\right	*	*	*	*	*	*	*
!LO:TX:t=P:problem:mixed beam	!	!	!	!LO:DY:rj:Bi:t=f&colon;	!	!LO:DY:rj	!	!	!	!	!	!	!	!	!	!	!	!	!	!LO:DY:Bi:t=for&colon;	!	!	!	!	!LO:DY:rj:Bi:t=for	!	!LO:DY:Bi:t=for.	!
8BB-/L	x x 3	f	16B-\LL	f	16d/LL	f	8b- 8f 8B-/	.	2B-\	mi-	2B-\	mi-	2f\	mi-	2dd\	mi-	2.ryy	2.ryy	2B-/	f	2f\	2d\	.	2b-\	f	2dd\	f	2ddd\
.	.	.	16d\	.	16f/	.	.	.	.	.	.	.	.	.	.	.	.	.	.	.	.	.	.	.	.	.	.	.
8B-\J	.	.	16B-\	.	16d/	.	32b-\LLL	.	.	.	.	.	.	.	.	.	.	.	.	.	.	.	.	.	.	.	.	.
.	.	.	.	.	.	.	32cc\	.	.	.	.	.	.	.	.	.	.	.	.	.	.	.	.	.	.	.	.	.
.	.	.	16d\	.	16f/	.	32dd\	.	.	.	.	.	.	.	.	.	.	.	.	.	.	.	.	.	.	.	.	.
.	.	.	.	.	.	.	32cc\JJJ	.	.	.	.	.	.	.	.	.	.	.	.	.	.	.	.	.	.	.	.	.
*tremolo	*	*	*	*	*	*	*	*	*	*	*	*	*	*	*	*	*	*	*	*	*	*	*	*	*	*	*	*
8B-\L	.	.	16B-\	.	16d/	.	16b-\LL	.	.	.	.	.	.	.	.	.	.	.	.	.	.	.	.	.	.	.	.	.
.	.	.	16d\	.	16f/	.	16cc\	.	.	.	.	.	.	.	.	.	.	.	.	.	.	.	.	.	.	.	.	.
8B-\	.	.	16B-\	.	16d/	.	16dd\	.	.	.	.	.	.	.	.	.	.	.	.	.	.	.	.	.	.	.	.	.
.	.	.	16d\	.	16f/	.	16ee-\JJ	.	.	.	.	.	.	.	.	.	.	.	.	.	.	.	.	.	.	.	.	.
8B-\	.	.	16B-\	.	16d/	.	16ff\LL	.	4B-\	-se-	4B-\	-se-	4f\	-ſe-	4dd\	-se-	.	.	4B-/	.	4f\	4d\	.	4b-\	.	4dd\	.	4ddd\
.	.	.	16d\	.	16f/	.	16gg\	.	.	.	.	.	.	.	.	.	.	.	.	.	.	.	.	.	.	.	.	.
!	!	!	!	!	!	!	!LO:SIC:v:s=16aan\	!	!	!	!	!	!	!	!	!	!	!	!	!	!	!	!	!	!	!	!	!
8B-\J	.	.	16B-\	.	16d/	.	16aa-\	.	.	.	.	.	.	.	.	.	.	.	.	.	.	.	.	.	.	.	.	.
!	!	!	!	!	!	!	!LO:TX:t=P:problem:usunięty kasownik przed 16bb-	!	!	!	!	!	!	!	!	!	!	!	!	!	!	!	!	!	!	!	!	!
.	.	.	16d\JJ	.	16f/JJ	.	16bb-\JJ	.	.	.	.	.	.	.	.	.	.	.	.	.	.	.	.	.	.	.	.	.
=10	=10	=10	=10	=10	=10	=10	=10	=10	=10	=10	=10	=10	=10	=10	=10	=10	=10	=10	=10	=10	=10	=10	=10	=10	=10	=10	=10	=10
8B-\L	x x 3	.	16B-\LL	.	16d/LL	.	16ccc#X\LL	.	2B-\	-re-	2B-\	-re-	2f\	-re-	2dd\	-re-	2.ryy	2.ryy	2B-/	.	2f\	2d\	.	2b-\	.	2dd\	.	2fff\
.	.	.	16d\	.	16f/	.	16ddd\	.	.	.	.	.	.	.	.	.	.	.	.	.	.	.	.	.	.	.	.	.
8B-\	.	.	16B-\	.	16d/	.	16aan\	.	.	.	.	.	.	.	.	.	.	.	.	.	.	.	.	.	.	.	.	.
.	.	.	16d\	.	16f/	.	16bb-\JJ	.	.	.	.	.	.	.	.	.	.	.	.	.	.	.	.	.	.	.	.	.
8B-\	.	.	16B-\	.	16d/	.	16een\LL	.	.	.	.	.	.	.	.	.	.	.	.	.	.	.	.	.	.	.	.	.
.	.	.	16d\	.	16f/	.	16ff\	.	.	.	.	.	.	.	.	.	.	.	.	.	.	.	.	.	.	.	.	.
8B-\	.	.	16B-\	.	16d/	.	16cc#X\	.	.	.	.	.	.	.	.	.	.	.	.	.	.	.	.	.	.	.	.	.
.	.	.	16d\	.	16f/	.	16dd\JJ	.	.	.	.	.	.	.	.	.	.	.	.	.	.	.	.	.	.	.	.	.
8B-\	.	.	16B-\	.	16d/	.	16an/LL	.	4B-\	-re	4B-\	-re	4f\	-re	4dd\	-re	.	.	4B-/	.	4f\	4d\	.	4b-\	.	4dd\	.	4ddd\
.	.	.	16d\	.	16f/	.	16b-/	.	.	.	.	.	.	.	.	.	.	.	.	.	.	.	.	.	.	.	.	.
8B-\J	.	.	16B-\	.	16d/	.	16en/	.	.	.	.	.	.	.	.	.	.	.	.	.	.	.	.	.	.	.	.	.
.	.	.	16d\JJ	.	16f/JJ	.	16f/JJ	.	.	.	.	.	.	.	.	.	.	.	.	.	.	.	.	.	.	.	.	.
*Xtremolo	*	*	*Xtremolo	*	*Xtremolo	*	*	*	*	*	*	*	*	*	*	*	*	*	*	*	*	*	*	*	*	*	*	*
=11	=11	=11	=11	=11	=11	=11	=11	=11	=11	=11	=11	=11	=11	=11	=11	=11	=11	=11	=11	=11	=11	=11	=11	=11	=11	=11	=11	=11
!	!	!	!	!	!	!	!	!	!	!	!	!	!	!	!	!	!	!	!	!	!	!	!	!LO:TX:a:t=bis	!	!	!	!LO:TX:a:t=1
8An\L	x x 7-	.	8An/L	.	8c/L	rf	16g-X/LL	.	8An\L	mi-	2f\	mi-	8cc\L	mi-	2cc\	mi-	2.ryy	2.ryy	8r	.	8r	2e-\	.	2cc\	.	2ee-\	.	2.r
.	.	.	.	.	.	.	16f/	.	.	.	.	.	.	.	.	.	.	.	.	.	.	.	.	.	.	.	.	.
8B-\	x x 5	.	8B-/	.	8d/	.	16f/	.	8B-\	.	.	.	8dd\	.	.	.	.	.	8f\	.	8f\	.	.	.	.	.	.	.
.	.	.	.	.	.	.	16f/JJ	.	.	.	.	.	.	.	.	.	.	.	.	.	.	.	.	.	.	.	.	.
!	!	!	!	!	!	!	!LO:LB:g=original	!	!	!	!	!	!	!	!	!	!	!	!	!	!	!	!	!	!	!	!	!
8A\	x x 7	.	8A/	mf	8c/	rf	16g-/LL	.	8A\	.	.	.	8cc\	.	.	.	.	.	8r	.	8r	.	.	.	.	.	.	.
.	.	.	.	.	.	.	16f/	.	.	.	.	.	.	.	.	.	.	.	.	.	.	.	.	.	.	.	.	.
8B-\	x x 5	.	8B-/	.	8d/	.	16f/	.	8B-\	.	.	.	8dd\	.	.	.	.	.	8f\	.	8f\	.	.	.	.	.	.	.
.	.	.	.	.	.	.	16f/JJ	.	.	.	.	.	.	.	.	.	.	.	.	.	.	.	.	.	.	.	.	.
8A\	x x n	.	8A/	mf	8c/	rf	16g-/LL	.	8A\	-se-	4f\	-se-	8cc\	-se-	4cc\	-se-	.	.	8r	.	8r	4e-\	.	4cc\	.	4ee-\	.	.
.	.	.	.	.	.	.	16f/	.	.	.	.	.	.	.	.	.	.	.	.	.	.	.	.	.	.	.	.	.
!	!	!	!	!	!	!	!	!	!	!	!	!	!	!	!	!	!	!	!LO:N:vis=4	!	!	!	!	!	!	!	!	!
8B-\J	x x 5	.	8B-/J	.	8d/J	.	16f/	.	8B-\J	.	.	.	8dd\J	.	.	.	.	.	8f\	.	8f\	.	.	.	.	.	.	.
.	.	.	.	.	.	.	16f/JJ	.	.	.	.	.	.	.	.	.	.	.	.	.	.	.	.	.	.	.	.	.
=12	=12	=12	=12	=12	=12	=12	=12	=12	=12	=12	=12	=12	=12	=12	=12	=12	=12	=12	=12	=12	=12	=12	=12	=12	=12	=12	=12	=12
*	*	*	*tremolo	*	*tremolo	*	*	*	*	*	*	*	*	*	*	*	*	*	*	*	*	*	*	*	*	*	*	*
8An\L	x x 5	.	8An/L	.	8e- 8c/L	.	16g-X/LL	.	2F\	-re-	2f\	-re-	2an\	-re-	2cc\	-re-	2.ryy	2.ryy	2.f\	.	2.f\	2.e-\	.	2.cc\	.	2.ee-\	.	16gg-X\LL
.	.	.	.	.	.	.	16f/	.	.	.	.	.	.	.	.	.	.	.	.	.	.	.	.	.	.	.	.	16ff\
8F\J	.	.	8An/	.	8e- 8c/	.	16an/	.	.	.	.	.	.	.	.	.	.	.	.	.	.	.	.	.	.	.	.	16aan\
.	.	.	.	.	.	.	16gn/JJ	.	.	.	.	.	.	.	.	.	.	.	.	.	.	.	.	.	.	.	.	16ggn\JJ
*tremolo	*	*	*	*	*	*	*	*	*	*	*	*	*	*	*	*	*	*	*	*	*	*	*	*	*	*	*	*
8F\L	x x 7	.	8An/	.	8e- 8c/	.	16b-\LL	.	.	.	.	.	.	.	.	.	.	.	.	.	.	.	.	.	.	.	.	16bb-\LL
.	.	.	.	.	.	.	16a\	.	.	.	.	.	.	.	.	.	.	.	.	.	.	.	.	.	.	.	.	16aa\
8F\	.	.	8An/	.	8e- 8c/	.	16cc\	.	.	.	.	.	.	.	.	.	.	.	.	.	.	.	.	.	.	.	.	16ccc\
.	.	.	.	.	.	.	16b-\JJ	.	.	.	.	.	.	.	.	.	.	.	.	.	.	.	.	.	.	.	.	16bb-\JJ
8F\	.	.	8An/	.	8e- 8c/	.	16dd\LL	.	4F\	-re	4f\	-re	4a\	-re	4cc\	-re	.	.	.	.	.	.	.	.	.	.	.	16ddd\LL
.	.	.	.	.	.	.	16cc\	.	.	.	.	.	.	.	.	.	.	.	.	.	.	.	.	.	.	.	.	16ccc\
8F\J	.	.	8An/J	.	8e- 8c/J	.	16ee-\	.	.	.	.	.	.	.	.	.	.	.	.	.	.	.	.	.	.	.	.	16eee-\
.	.	.	.	.	.	.	16dd\JJ	.	.	.	.	.	.	.	.	.	.	.	.	.	.	.	.	.	.	.	.	16ddd\JJ
!LO:LB:g=original	!	!	!	!	!LO:LB:g=original	!	!	!	!	!	!	!	!	!	!	!	!	!	!	!	!	!	!	!	!	!	!	!
=13	=13	=13	=13	=13	=13	=13	=13	=13	=13	=13	=13	=13	=13	=13	=13	=13	=13	=13	=13	=13	=13	=13	=13	=13	=13	=13	=13	=13
!	!	!	!LO:TX:t=P:problem:LO:SIC:v:s=2.An/	!	!	!	!	!	!	!	!	!	!	!	!	!	!	!	!	!	!	!LO:N:vis=2	!	!	!	!	!	!
8F\L	x x 7	.	8A-/L	.	8e- 8c/L	.	16ff\LL	.	2F\	no-	2f\	no-	2cc\	no-	2ee-\	no-	2.ryy	2.ryy	2.f\	.	2.f\	2.e-\	.	2.cc\	.	2.ee-\	.	16fff\LL
.	.	.	.	.	.	.	16ee-\	.	.	.	.	.	.	.	.	.	.	.	.	.	.	.	.	.	.	.	.	16eee-\
8F\	.	.	8A-/	.	8e- 8c/	.	16dd\	.	.	.	.	.	.	.	.	.	.	.	.	.	.	.	.	.	.	.	.	16ddd\
.	.	.	.	.	.	.	16cc\JJ	.	.	.	.	.	.	.	.	.	.	.	.	.	.	.	.	.	.	.	.	16ccc\JJ
8F\	.	.	8A-/	.	8e- 8c/	.	16b-/LL	.	.	.	.	.	.	.	.	.	.	.	.	.	.	.	.	.	.	.	.	16bb-\LL
.	.	.	.	.	.	.	16an/	.	.	.	.	.	.	.	.	.	.	.	.	.	.	.	.	.	.	.	.	16aan\
8F\	.	.	8A-/	.	8e- 8c/	.	16g/	.	.	.	.	.	.	.	.	.	.	.	.	.	.	.	.	.	.	.	.	16gg\
.	.	.	.	.	.	.	16f/JJ	.	.	.	.	.	.	.	.	.	.	.	.	.	.	.	.	.	.	.	.	16ff\JJ
!	!	!	!	!	!	!	!	!	!	!	!	!	!	!	!	!	!	!	!	!	!	!	!	!	!	!	!	!LO:LB:g=original
8F\	.	.	8A-/	.	8e- 8c/	.	16f/LL	.	4F\	-bis	4f\	-bis	4cc\	-bis	4ee-\	-bis	.	.	.	.	.	.	.	.	.	.	.	16ff\LL
.	.	.	.	.	.	.	16e-/	.	.	.	.	.	.	.	.	.	.	.	.	.	.	.	.	.	.	.	.	16ee-\
8F\J	.	.	8A-/J	.	8e- 8c/J	.	16d/	.	.	.	.	.	.	.	.	.	.	.	.	.	.	.	.	.	.	.	.	16dd\
.	.	.	.	.	.	.	16c/JJ	.	.	.	.	.	.	.	.	.	.	.	.	.	.	.	.	.	.	.	.	16cc\JJ
!	!	!	!	!	!	!	!	!	!	!	!	!	!LO:LB:g=original	!	!	!	!	!	!	!	!	!	!	!	!	!	!	!
=14	=14	=14	=14	=14	=14	=14	=14:||	=14	=14	=14	=14	=14	=14	=14	=14	=14	=14	=14	=14	=14	=14	=14:||	=14	=14:||	=14	=14	=14	=14
!	!	!	!	!	!	!	!LO:TX:t=P:problem:t. 14-18 zapisane repetycją	!	!	!	!	!	!	!	!	!	!	!	!	!	!	!LO:TX:t=P:problem:t.14-18 zapisane repetycją	!	!LO:TX:t=P:problem:t.14-18 zapisane jako repetycja	!	!	!	!
8B-\L	x x 3	.	16B-\LL	.	16d/LL	.	8b-yy 8fyy 8B-/yy	.	2B-\	mi-	2B-\	mi-	2f\	mi-	2dd\	mi-	2.ryy	2.ryy	2B-/	.	2f\	2d\yy	.	2b-\yy	.	2dd\	.	2ddd\
.	.	.	16d\	.	16f/	.	.	.	.	.	.	.	.	.	.	.	.	.	.	.	.	.	.	.	.	.	.	.
8B-\	.	.	16B-\	.	16d/	.	32b-\LLLyy	.	.	.	.	.	.	.	.	.	.	.	.	.	.	.	.	.	.	.	.	.
.	.	.	.	.	.	.	32cc\yy	.	.	.	.	.	.	.	.	.	.	.	.	.	.	.	.	.	.	.	.	.
.	.	.	16d\	.	16f/	.	32dd\yy	.	.	.	.	.	.	.	.	.	.	.	.	.	.	.	.	.	.	.	.	.
.	.	.	.	.	.	.	32cc\JJJyy	.	.	.	.	.	.	.	.	.	.	.	.	.	.	.	.	.	.	.	.	.
8B-\	.	.	16B-\	.	16d/	.	16b-\LLyy	.	.	.	.	.	.	.	.	.	.	.	.	.	.	.	.	.	.	.	.	.
.	.	.	16d\	.	16f/	.	16cc\yy	.	.	.	.	.	.	.	.	.	.	.	.	.	.	.	.	.	.	.	.	.
8B-\	.	.	16B-\	.	16d/	.	16dd\yy	.	.	.	.	.	.	.	.	.	.	.	.	.	.	.	.	.	.	.	.	.
.	.	.	16d\	.	16f/	.	16ee-\JJyy	.	.	.	.	.	.	.	.	.	.	.	.	.	.	.	.	.	.	.	.	.
8B-\	.	.	16B-\	.	16d/	.	16ff\LLyy	.	4B-\	-se-	4B-\	-se-	4f\	-se-	4dd\	-se-	.	.	4B-/	.	4f\	4d\yy	.	4b-\yy	.	4dd\	.	4ddd\
.	.	.	16d\	.	16f/	.	16gg\yy	.	.	.	.	.	.	.	.	.	.	.	.	.	.	.	.	.	.	.	.	.
!	!	!	!	!	!	!	!LO:SIC:v:s=16aan\yy	!	!	!	!	!	!	!	!	!	!	!	!	!	!	!	!	!	!	!	!	!
8B-\J	.	.	16B-\	.	16d/	.	16aa-\yy	.	.	.	.	.	.	.	.	.	.	.	.	.	.	.	.	.	.	.	.	.
!	!	!	!	!	!	!	!LO:TX:t=P:problem:usunięty kasownik przed 16bb-	!	!	!	!	!	!	!	!	!	!	!	!	!	!	!	!	!	!	!	!	!
.	.	.	16d\JJ	.	16f/JJ	.	16bb-\JJyy	.	.	.	.	.	.	.	.	.	.	.	.	.	.	.	.	.	.	.	.	.
!	!	!	!	!	!	!	!	!	!LO:LB:g=original	!	!	!	!	!	!	!	!	!	!	!	!	!	!	!	!	!	!	!
=15	=15	=15	=15	=15	=15	=15	=15	=15	=15	=15	=15	=15	=15	=15	=15	=15	=15	=15	=15	=15	=15	=15	=15	=15	=15	=15	=15	=15
8B-\L	x x 3	.	16B-\LL	.	16d/LL	.	16ccc#X\LLyy	.	2B-\	-re-	2B-\	-re-	2f\	-re-	2dd\	-re-	2.ryy	2.ryy	2B-/	.	2f\	2d\yy	.	2b-\yy	.	2dd\	.	2ddd\
.	.	.	16d\	.	16f/	.	16ddd\yy	.	.	.	.	.	.	.	.	.	.	.	.	.	.	.	.	.	.	.	.	.
8B-\	.	.	16B-\	.	16d/	.	16aan\yy	.	.	.	.	.	.	.	.	.	.	.	.	.	.	.	.	.	.	.	.	.
.	.	.	16d\	.	16f/	.	16bb-\JJyy	.	.	.	.	.	.	.	.	.	.	.	.	.	.	.	.	.	.	.	.	.
8B-\	.	.	16B-\	.	16d/	.	16een\LLyy	.	.	.	.	.	.	.	.	.	.	.	.	.	.	.	.	.	.	.	.	.
.	.	.	16d\	.	16f/	.	16ff\yy	.	.	.	.	.	.	.	.	.	.	.	.	.	.	.	.	.	.	.	.	.
8B-\	.	.	16B-\	.	16d/	.	16cc#X\yy	.	.	.	.	.	.	.	.	.	.	.	.	.	.	.	.	.	.	.	.	.
.	.	.	16d\	.	16f/	.	16dd\JJyy	.	.	.	.	.	.	.	.	.	.	.	.	.	.	.	.	.	.	.	.	.
8B-\	.	.	16B-\	.	16d/	.	16an/LLyy	.	4B-\	-re	4B-\	-re	4f\	-re	4dd\	-re	.	.	4B-/	.	4f\	4d\yy	.	4b-\yy	.	4dd\	.	4ddd\
.	.	.	16d\	.	16f/	.	16b-/yy	.	.	.	.	.	.	.	.	.	.	.	.	.	.	.	.	.	.	.	.	.
8B-\J	.	.	16B-\	.	16d/	.	16en/yy	.	.	.	.	.	.	.	.	.	.	.	.	.	.	.	.	.	.	.	.	.
.	.	.	16d\JJ	.	16f/JJ	.	16f/JJyy	.	.	.	.	.	.	.	.	.	.	.	.	.	.	.	.	.	.	.	.	.
*Xtremolo	*	*	*Xtremolo	*	*Xtremolo	*	*	*	*	*	*	*	*	*	*	*	*	*	*	*	*	*	*	*	*	*	*	*
!	!	!	!	!	!	!	!	!	!	!	!LO:LB:g=original	!	!	!	!	!	!	!	!LO:LB:g=original	!	!	!	!	!	!	!	!	!
=16	=16	=16	=16	=16	=16	=16	=16	=16	=16	=16	=16	=16	=16	=16	=16	=16	=16	=16	=16	=16	=16	=16	=16	=16	=16	=16	=16	=16
!	!	!	!	!	!	!	!	!	!	!	!	!	!	!	!	!	!	!	!	!	!	!	!	!	!	!	!	!LO:TX:a:t=1
8An\L	x x -7	.	8An/L	.	8c/L	rf	16g-X/LLyy	.	8An\L	mi-	2f\	mi-	8cc\L	mi-	2cc\	mi-	2.ryy	2.ryy	8r	.	8r	2e-\yy	.	2cc\yy	.	2ee-\	.	2.r
.	.	.	.	.	.	.	16f/yy	.	.	.	.	.	.	.	.	.	.	.	.	.	.	.	.	.	.	.	.	.
8B-\	x x 5	.	8B-/	.	8d/	.	16f/yy	.	8B-\	.	.	.	8dd\	.	.	.	.	.	8f\	.	8f\	.	.	.	.	.	.	.
.	.	.	.	.	.	.	16f/JJyy	.	.	.	.	.	.	.	.	.	.	.	.	.	.	.	.	.	.	.	.	.
8A\	x x 7	.	8A/	mf	8c/	rf	16g-/LLyy	.	8A\	.	.	.	8cc\	.	.	.	.	.	8r	.	8r	.	.	.	.	.	.	.
.	.	.	.	.	.	.	16f/yy	.	.	.	.	.	.	.	.	.	.	.	.	.	.	.	.	.	.	.	.	.
8B-\	x x 5	.	8B-/	.	8d/	.	16f/yy	.	8B-\	.	.	.	8dd\	.	.	.	.	.	8f\	.	8f\	.	.	.	.	.	.	.
.	.	.	.	.	.	.	16f/JJyy	.	.	.	.	.	.	.	.	.	.	.	.	.	.	.	.	.	.	.	.	.
!	!	!	!	!	!	!	!	!	!	!	!	!	!	!	!	!	!	!	!	!	!LO:LB:g=original	!	!	!	!	!	!	!
8A\	x x 7	.	8A/	mf	8c/	rf	16g-/LLyy	.	8A\	-se-	4f\	-se-	8cc\	-se-	4cc\	-se-	.	.	8r	.	8r	4e-\yy	.	4cc\yy	.	4ee-\	.	.
.	.	.	.	.	.	.	16f/yy	.	.	.	.	.	.	.	.	.	.	.	.	.	.	.	.	.	.	.	.	.
8B-\J	x x 5	.	8B-/J	.	8d/J	.	16f/yy	.	8B-\J	.	.	.	8dd\J	.	.	.	.	.	8f\	.	8f\	.	.	.	.	.	.	.
.	.	.	.	.	.	.	16f/JJyy	.	.	.	.	.	.	.	.	.	.	.	.	.	.	.	.	.	.	.	.	.
=17	=17	=17	=17	=17	=17	=17	=17	=17	=17	=17	=17	=17	=17	=17	=17	=17	=17	=17	=17	=17	=17	=17	=17	=17	=17	=17	=17	=17
*	*	*	*tremolo	*	*tremolo	*	*	*	*	*	*	*	*	*	*	*	*	*	*	*	*	*	*	*	*	*	*	*
8An\L	x x 5	.	8An/L	.	8e- 8c/L	.	16g-X/LLyy	.	2F\	-re-	2f\	-re-	2an\	-re-	2cc\	-re-	2.ryy	2.ryy	2.f\	.	2.f\	2.e-\yy	.	2.cc\yy	.	2.ee-\	.	16gg-X\LL
.	.	.	.	.	.	.	16f/yy	.	.	.	.	.	.	.	.	.	.	.	.	.	.	.	.	.	.	.	.	16ff\
8F\J	x x 7	.	8An/	.	8e- 8c/	.	16an/yy	.	.	.	.	.	.	.	.	.	.	.	.	.	.	.	.	.	.	.	.	16aan\
.	.	.	.	.	.	.	16gn/JJyy	.	.	.	.	.	.	.	.	.	.	.	.	.	.	.	.	.	.	.	.	16ggn\JJ
*tremolo	*	*	*	*	*	*	*	*	*	*	*	*	*	*	*	*	*	*	*	*	*	*	*	*	*	*	*	*
8F\L	x x 7	.	8An/	.	8e- 8c/	.	16b-\LLyy	.	.	.	.	.	.	.	.	.	.	.	.	.	.	.	.	.	.	.	.	16bb-\LL
.	.	.	.	.	.	.	16a\yy	.	.	.	.	.	.	.	.	.	.	.	.	.	.	.	.	.	.	.	.	16aa\
8F\	.	.	8An/	.	8e- 8c/	.	16cc\yy	.	.	.	.	.	.	.	.	.	.	.	.	.	.	.	.	.	.	.	.	16ccc\
.	.	.	.	.	.	.	16b-\JJyy	.	.	.	.	.	.	.	.	.	.	.	.	.	.	.	.	.	.	.	.	16bb-\JJ
8F\	.	.	8An/	.	8e- 8c/	.	16dd\LLyy	.	4F\	-re	4f\	-re	4a\	-re	4cc\	-re	.	.	.	.	.	.	.	.	.	.	.	16ddd\LL
.	.	.	.	.	.	.	16cc\yy	.	.	.	.	.	.	.	.	.	.	.	.	.	.	.	.	.	.	.	.	16ccc\
8F\J	.	.	8An/J	.	8e- 8c/J	.	16ee-\yy	.	.	.	.	.	.	.	.	.	.	.	.	.	.	.	.	.	.	.	.	16eee-\
.	.	.	.	.	.	.	16dd\JJyy	.	.	.	.	.	.	.	.	.	.	.	.	.	.	.	.	.	.	.	.	16ddd\JJ
=18	=18	=18	=18	=18	=18	=18	=18	=18	=18	=18	=18	=18	=18	=18	=18	=18	=18	=18	=18	=18	=18	=18	=18	=18	=18	=18	=18	=18
!	!	!	!LO:TX:t=P:problem:LO:SIC:v:s=2.An/	!	!	!	!	!	!	!	!	!	!	!	!	!	!	!	!	!	!	!LO:N:vis=2	!	!	!	!	!	!
8F\L	x x 7	.	8A-/L	.	8e- 8c/L	.	16ff\LLyy	.	2F\	no-	2f\	no-	2cc\	no-	2ee-\	no-	2.ryy	2.ryy	2.f\	.	2.f\	2.e-\yy	.	2.cc\yy	.	2.ee-\	.	16fff\LL
.	.	.	.	.	.	.	16ee-\yy	.	.	.	.	.	.	.	.	.	.	.	.	.	.	.	.	.	.	.	.	16eee-\
8F\	.	.	8A-/	.	8e- 8c/	.	16dd\yy	.	.	.	.	.	.	.	.	.	.	.	.	.	.	.	.	.	.	.	.	16ddd\
.	.	.	.	.	.	.	16cc\JJyy	.	.	.	.	.	.	.	.	.	.	.	.	.	.	.	.	.	.	.	.	16ccc\JJ
8F\	.	.	8A-/	.	8e- 8c/	.	16b-/LLyy	.	.	.	.	.	.	.	.	.	.	.	.	.	.	.	.	.	.	.	.	16bb-\LL
.	.	.	.	.	.	.	16an/yy	.	.	.	.	.	.	.	.	.	.	.	.	.	.	.	.	.	.	.	.	16aan\
8F\	.	.	8A-/	.	8e- 8c/	.	16g/yy	.	.	.	.	.	.	.	.	.	.	.	.	.	.	.	.	.	.	.	.	16gg\
.	.	.	.	.	.	.	16f/JJyy	.	.	.	.	.	.	.	.	.	.	.	.	.	.	.	.	.	.	.	.	16ff\JJ
8F\	.	.	8A-/	.	8e- 8c/	.	16f/LLyy	.	4F\	-bis	4f\	-bis	4cc\	-bis	4ee-\	-bis	.	.	.	.	.	.	.	.	.	.	.	16ff\LL
.	.	.	.	.	.	.	16e-/yy	.	.	.	.	.	.	.	.	.	.	.	.	.	.	.	.	.	.	.	.	16ee-\
8F\J	.	.	8A-/J	.	8e- 8c/J	.	16d/yy	.	.	.	.	.	.	.	.	.	.	.	.	.	.	.	.	.	.	.	.	16dd\
.	.	.	.	.	.	.	16c/JJyy	.	.	.	.	.	.	.	.	.	.	.	.	.	.	.	.	.	.	.	.	16cc\JJ
=19	=19	=19	=19	=19	=19	=19	=19	=19	=19	=19	=19	=19	=19	=19	=19	=19	=19	=19	=19	=19	=19	=19	=19	=19	=19	=19	=19	=19
8BB-/L	x x 3	.	16B-\LL	.	16d/LL	.	8b- 8f 8B-/	.	2B-\	mi-	2B-\	mi-	2dd\	mi-	2ff\	mi-	2.ryy	2.ryy	2B-/	.	2f\	2d\	.	2dd\	.	2ff\	.	2dd\
.	.	.	16d\	.	16f/	.	.	.	.	.	.	.	.	.	.	.	.	.	.	.	.	.	.	.	.	.	.	.
8BB-/	.	.	16B-\	.	16d/	.	32b-\LLL	.	.	.	.	.	.	.	.	.	.	.	.	.	.	.	.	.	.	.	.	.
.	.	.	.	.	.	.	32cc\	.	.	.	.	.	.	.	.	.	.	.	.	.	.	.	.	.	.	.	.	.
.	.	.	16d\	.	16f/	.	32dd\	.	.	.	.	.	.	.	.	.	.	.	.	.	.	.	.	.	.	.	.	.
.	.	.	.	.	.	.	32cc\JJJ	.	.	.	.	.	.	.	.	.	.	.	.	.	.	.	.	.	.	.	.	.
8BB-/	.	.	16B-\	.	16d/	.	8b-\L	.	.	.	.	.	.	.	.	.	.	.	.	.	.	.	.	.	.	.	.	.
.	.	.	16d\	.	16f/	.	.	.	.	.	.	.	.	.	.	.	.	.	.	.	.	.	.	.	.	.	.	.
8BB-/J	.	.	16B-\	.	16d/	.	8bb-\	.	.	.	.	.	.	.	.	.	.	.	.	.	.	.	.	.	.	.	.	.
.	.	.	16d\JJ	.	16f/JJ	.	.	.	.	.	.	.	.	.	.	.	.	.	.	.	.	.	.	.	.	.	.	.
*Xtremolo	*	*	*Xtremolo	*	*Xtremolo	*	*	*	*	*	*	*	*	*	*	*	*	*	*	*	*	*	*	*	*	*	*	*
8D\L	x x 5	.	16d\LL	.	16f/LL	.	8cc\	.	4D/	-se-	4B-\	-se-	4dd\	-se-	4ff\	-se-	.	.	4c/	.	4f\	4f\	.	4ff\	.	4aa-X\	.	4aa-X\
.	.	.	16f\	.	16a-X/	.	.	.	.	.	.	.	.	.	.	.	.	.	.	.	.	.	.	.	.	.	.	.
8D\J	.	.	16d\	.	16f/	.	8aa-X\J	.	.	.	.	.	.	.	.	.	.	.	.	.	.	.	.	.	.	.	.	.
.	.	.	16f\JJ	.	16a-/JJ	.	.	.	.	.	.	.	.	.	.	.	.	.	.	.	.	.	.	.	.	.	.	.
!	!	!	!	!	!	!	!	!	!	!	!	!	!	!	!LO:LB:g=original	!	!	!	!	!	!	!	!	!	!	!LO:LB:g=original	!	!
=20	=20	=20	=20	=20	=20	=20	=20	=20	=20	=20	=20	=20	=20	=20	=20	=20	=20	=20	=20	=20	=20	=20	=20	=20	=20	=20	=20	=20
*tremolo	*	*	*tremolo	*	*tremolo	*	*	*	*	*	*	*	*	*	*	*	*	*	*	*	*	*	*	*	*	*	*	*
8E-\L	x x 3	.	16B-\LL	.	16e-/LL	.	8gg\	.	2E-\	-re-	2B-\	-re-	2ee-\	-re-	2gg\	-re-	2.ryy	2.ryy	2e-\	.	2g\	2g\	.	2ee-\	.	2gg\	.	2gg\
.	.	.	16e-\	.	16g/	.	.	.	.	.	.	.	.	.	.	.	.	.	.	.	.	.	.	.	.	.	.	.
!	!	!	!	!	!	!	!LO:LB:g=original	!	!	!	!	!	!	!	!	!	!	!	!	!	!	!	!	!	!	!	!	!
8E-\	.	.	16B-\	.	16e-/	.	32e-/LLL	.	.	.	.	.	.	.	.	.	.	.	.	.	.	.	.	.	.	.	.	.
.	.	.	.	.	.	.	32f/	.	.	.	.	.	.	.	.	.	.	.	.	.	.	.	.	.	.	.	.	.
.	.	.	16e-\	.	16g/	.	32g/	.	.	.	.	.	.	.	.	.	.	.	.	.	.	.	.	.	.	.	.	.
.	.	.	.	.	.	.	32f/JJJ	.	.	.	.	.	.	.	.	.	.	.	.	.	.	.	.	.	.	.	.	.
!	!	!	!	!	!	!	!LO:TX:t=P:problem:mixed beam	!	!	!	!	!	!	!	!	!	!	!	!	!	!	!	!	!	!	!	!	!
8E-\	.	.	16B-\	.	16e-/	.	8e-/L	.	.	.	.	.	.	.	.	.	.	.	.	.	.	.	.	.	.	.	.	.
.	.	.	16e-\	.	16g/	.	.	.	.	.	.	.	.	.	.	.	.	.	.	.	.	.	.	.	.	.	.	.
8E-\J	.	.	16B-\	.	16e-/	.	8gg\	.	.	.	.	.	.	.	.	.	.	.	.	.	.	.	.	.	.	.	.	.
.	.	.	16e-\JJ	.	16g/JJ	.	.	.	.	.	.	.	.	.	.	.	.	.	.	.	.	.	.	.	.	.	.	.
*Xtremolo	*	*	*Xtremolo	*	*Xtremolo	*	*	*	*	*	*	*	*	*	*	*	*	*	*	*	*	*	*	*	*	*	*	*
!	!	!	!	!	!	!	!	!	!	!	!LO:SIC:v:s=4c\	!	!	!	!	!	!	!	!	!	!	!	!	!	!	!	!	!
8F\L	x x n	.	16An/LL	.	16cc\LL	.	8f/	.	4F\	-re	4B-\	-re	4cc\	-re	4ee-\	-re	.	.	4f\	.	4g\	4e-\	.	4cc\	.	4aa\	.	4aan\
.	.	.	16c/	.	16ee-\	.	.	.	.	.	.	.	.	.	.	.	.	.	.	.	.	.	.	.	.	.	.	.
8F\J	.	.	16A/	.	16cc\	.	8aan\J	.	.	.	.	.	.	.	.	.	.	.	.	.	.	.	.	.	.	.	.	.
.	.	.	16c/JJ	.	16ee-\JJ	.	.	.	.	.	.	.	.	.	.	.	.	.	.	.	.	.	.	.	.	.	.	.
!LO:LB:g=original	!	!	!LO:LB:g=original	!	!LO:LB:g=original	!	!	!	!	!	!	!	!	!	!	!	!	!	!	!	!	!LO:LB:g=origianl	!	!LO:LB:g=original	!	!	!	!LO:LB:g=original
=21	=21	=21	=21	=21	=21	=21	=21	=21	=21	=21	=21	=21	=21	=21	=21	=21	=21	=21	=21	=21	=21	=21	=21	=21	=21	=21	=21	=21
*	*	*	*	*	*	*	*	*	*	*ij	*	*	*	*ij	*	*	*	*	*	*	*	*	*	*	*	*	*	*
!LO:TX:t=P:problem:mixed beam	!	!	!	!	!	!	!	!	!	!	!	!	!	!	!	!	!	!	!	!	!	!LO:TX:t=P:problem:kropka z lewej strony	!	!	!	!	!	!
16B-\LL	x x 3	.	16B-\LL	.	8dd\	.	8bb-\	.	2B-\	mi-	2d\	mi-	2b-\	mi-	2dd\	mi-	2.ryy	2.ryy	2B-/	.	2f\	2.d\	.	2dd\	.	2bb-\	.	8bb-\
16BB-/	.	.	16B-\	.	.	.	.	.	.	.	.	.	.	.	.	.	.	.	.	.	.	.	.	.	.	.	.	.
16C/	.	.	16c\	.	4dd\	.	4bb-\	.	.	.	.	.	.	.	.	.	.	.	.	.	.	.	.	.	.	.	.	4bb-\
16D/JJ	.	.	16d\JJ	.	.	.	.	.	.	.	.	.	.	.	.	.	.	.	.	.	.	.	.	.	.	.	.	.
16E-\LL	.	.	16e-\LL	.	.	.	.	.	.	.	.	.	.	.	.	.	.	.	.	.	.	.	.	.	.	.	.	.
16F\	.	.	16f\	.	.	.	.	.	.	.	.	.	.	.	.	.	.	.	.	.	.	.	.	.	.	.	.	.
16G\	.	.	16g\	.	4dd\	.	4bb-\	.	.	.	.	.	.	.	.	.	.	.	.	.	.	.	.	.	.	.	.	4bb-\
16An\JJ	.	.	16an\JJ	.	.	.	.	.	.	.	.	.	.	.	.	.	.	.	.	.	.	.	.	.	.	.	.	.
16B-\LL	.	.	16b-\LL	.	.	.	.	.	4B-\	-se-	4d\	-se-	4b-\	-se-	4dd\	-se-	.	.	4B-/	.	4f\	.	.	4dd\	.	4bb-\	.	.
16A\	.	.	16a\	.	.	.	.	.	.	.	.	.	.	.	.	.	.	.	.	.	.	.	.	.	.	.	.	.
16G\	.	.	16g\	.	8dd\	.	8bb-\	.	.	.	.	.	.	.	.	.	.	.	.	.	.	.	.	.	.	.	.	8bb-\
16F#X\JJ	.	.	16f#X\JJ	.	.	.	.	.	.	.	.	.	.	.	.	.	.	.	.	.	.	.	.	.	.	.	.	.
=22	=22	=22	=22	=22	=22	=22	=22	=22	=22	=22	=22	=22	=22	=22	=22	=22	=22	=22	=22	=22	=22	=22	=22	=22	=22	=22	=22	=22
!LO:TX:t=P:problem:mixed beam	!	!	!LO:TX:t=P:problem:mixed beam	!	!	!	!	!	!	!	!	!	!	!	!	!	!	!	!	!	!	!	!	!	!	!	!	!
16G\LL	x x 5	.	16g\LL	.	8dd\	.	8bb-\	.	2G\	-re-	2g\	-re-	2b-\	-re-	2dd\	-re-	2.ryy	2.ryy	2B-/	.	2f\	2.d\	.	2dd\	.	2bb-\	.	8bb-\
16GG/	.	.	16G/	.	.	.	.	.	.	.	.	.	.	.	.	.	.	.	.	.	.	.	.	.	.	.	.	.
16AA-/	.	.	16A-/	.	4dd\	.	4bb-\	.	.	.	.	.	.	.	.	.	.	.	.	.	.	.	.	.	.	.	.	4bb-\
16BB-/JJ	.	.	16B-/JJ	.	.	.	.	.	.	.	.	.	.	.	.	.	.	.	.	.	.	.	.	.	.	.	.	.
16C\LL	.	.	16c\LL	.	.	.	.	.	.	.	.	.	.	.	.	.	.	.	.	.	.	.	.	.	.	.	.	.
16D\	.	.	16d\	.	.	.	.	.	.	.	.	.	.	.	.	.	.	.	.	.	.	.	.	.	.	.	.	.
16E-\	.	.	16e-\	.	4dd\	.	4bb-\	.	.	.	.	.	.	.	.	.	.	.	.	.	.	.	.	.	.	.	.	4bb-\
16F#X\JJ	.	.	16f#X\JJ	.	.	.	.	.	.	.	.	.	.	.	.	.	.	.	.	.	.	.	.	.	.	.	.	.
16G\LL	.	.	16g\LL	.	.	.	.	.	4G\	-re	4g\	-re	4b-\	-re	4dd\	-re	.	.	4B-/	.	4f\	.	.	4dd\	.	4aa-\	.	.
*	*	*	*	*	*	*	*	*	*	*Xij	*	*	*	*Xij	*	*	*	*	*	*	*	*	*	*	*	*	*	*
16Fn\	.	.	16fn\	.	.	.	.	.	.	.	.	.	.	.	.	.	.	.	.	.	.	.	.	.	.	.	.	.
16E-\	.	.	16e-\	.	8dd\	.	8bb-\	.	.	.	.	.	.	.	.	.	.	.	.	.	.	.	.	.	.	.	.	8bb-\
16D\JJ	.	.	16d\JJ	.	.	.	.	.	.	.	.	.	.	.	.	.	.	.	.	.	.	.	.	.	.	.	.	.
!	!	!	!	!	!	!	!	!	!	!	!	!	!LO:LB:g=original	!	!	!	!	!	!	!	!	!	!	!	!	!	!	!
=23	=23	=23	=23	=23	=23	=23	=23	=23	=23	=23	=23	=23	=23	=23	=23	=23	=23	=23	=23	=23	=23	=23	=23	=23	=23	=23	=23	=23
*	*	*	*	*	*tremolo	*	*	*	*	*	*	*	*	*	*	*	*	*	*	*	*	*	*	*	*	*	*	*
!LO:TX:t=P:problem:mixed beam	!	!	!LO:TX:t=P:problem:mixed beam	!	!	!	!	!	!	!	!	!	!	!	!	!	!	!	!	!	!	!	!	!	!	!	!	!
8E-\L	x x 6	.	8e-\L	.	16b-\LL	.	16bb-\LL	.	4E-\	no-	4g\	no-	4cc\	no-	4ee-\	no-	2.ryy	2.ryy	4e-\	.	4g\	4e-\	.	8ee-\L	.	8gg\L	.	16bb-\LL
.	.	.	.	.	16b-\	.	16gg\	.	.	.	.	.	.	.	.	.	.	.	.	.	.	.	.	.	.	.	.	16gg\
8E-\	.	.	8e-\	.	16b-\	.	16gg\	.	.	.	.	.	.	.	.	.	.	.	.	.	.	.	.	8cc\J	.	8ee-\J	.	16gg\
.	.	.	.	.	16b-\JJ	.	16ee-\JJ	.	.	.	.	.	.	.	.	.	.	.	.	.	.	.	.	.	.	.	.	16ee-\JJ
*	*	*	*	*	*Xtremolo	*	*	*	*	*	*	*	*	*	*	*	*	*	*	*	*	*	*	*	*	*	*	*
8F\	x x 4	.	8f\	.	16b-\LL	.	16dd\LL	.	2F\	.	2f\	.	4b-\	.	4dd\	.	.	.	4f\	.	4f\	4d\	.	4b-\	.	4dd\	.	4dd\
.	.	.	.	.	16dd\	.	16ff\	.	.	.	.	.	.	.	.	.	.	.	.	.	.	.	.	.	.	.	.	.
8F\	.	.	8f\	.	16b-\	.	16dd\	.	.	.	.	.	.	.	.	.	.	.	.	.	.	.	.	.	.	.	.	.
.	.	.	.	.	16dd\JJ	.	16ff\JJ	.	.	.	.	.	.	.	.	.	.	.	.	.	.	.	.	.	.	.	.	.
8FF/	.	.	8F/	.	16c/LL	.	16an\LL	.	.	.	.	.	4an\	.	4cc\	.	.	.	4f\	.	4f\	4c\	.	4a\	.	4cc\	.	8cc\L
.	.	.	.	.	16e-/	.	16cc\	.	.	.	.	.	.	.	.	.	.	.	.	.	.	.	.	.	.	.	.	.
8FF/J	.	.	8F/J	.	16c/	.	16a\	.	.	.	.	.	.	.	.	.	.	.	.	.	.	.	.	.	.	.	.	8aan\J
.	.	.	.	.	16e-/JJ	.	16cc\JJ	.	.	.	.	.	.	.	.	.	.	.	.	.	.	.	.	.	.	.	.	.
!	!	!	!	!	!	!	!	!	!LO:LB:g=original	!	!	!	!	!	!	!	!	!	!	!	!	!	!	!	!	!	!	!
=24	=24	=24	=24	=24	=24	=24	=24	=24	=24	=24	=24	=24	=24	=24	=24	=24	=24	=24	=24	=24	=24	=24	=24	=24	=24	=24	=24	=24
!	!	!	!	!	!	!	!	!	!	!	!	!	!	!	!	!	!	!	!	!	!	!	!	!	!	!	!	!LO:TX:t=P:problem:brak t. 24; ołówkiem dopisane 4bb-\ 4bb-\ 4r
4BB-/	.	.	4B-/	.	4d/	.	4b-\	.	2BB-/	-bis,	2f\	-bis	2b-\	-bis	2b-\	-bis	2.ryy	2.ryy	4B-/	.	4f\	4d\	.	4b-\	.	4dd\	.	2.ryy
4BB-/	.	.	4B-/	.	4d/	.	4B-/	.	.	.	.	.	.	.	.	.	.	.	4r	.	4f\	4d\	.	4b-\	.	4dd\	.	.
4r	.	.	4r	.	4r	.	4r	.	4r	.	4r	.	4r	.	4r	.	.	.	4r	.	4r	4r	.	4r	.	4r	.	.
!LO:LB:g=original	!	!	!	!	!	!	!	!	!	!	!	!	!	!	!	!	!	!	!	!	!	!	!	!	!	!	!	!
=25	=25	=25	=25	=25	=25	=25	=25	=25	=25	=25	=25	=25	=25	=25	=25	=25	=25	=25	=25	=25	=25	=25	=25	=25	=25	=25	=25	=25
*tremolo	*	*	*tremolo	*	*tremolo	*	*tremolo	*	*	*	*	*	*	*	*	*	*	*	*	*	*	*	*	*	*	*	*	*
!	!	!	!	!LO:DY:Bi:t=p&colon;	!	!LO:DY:rj:Bi:t=p.	!	!	!	!	!	!	!	!	!	!	!	!	!LO:TX:a:t=8	!	!LO:TX:a:t=8	!LO:TX:a:t=8.	!	!	!	!LO:TX:a:t=8.	!	!LO:TX:a:t=8.
!	!	!LO:DY:Bi:t=p&colon;	!	!	!	!	!	!	!	!	!	!	!	!	!	!	!	!	!LO:N:vis=00	!	!	!LO:N:vis=00	!	!LO:N:vis=00	!	!LO:N:vis-00	!	!LO:N:vis=00
8F\L	.	p	8A-/L	p	8c/L	p	8f/L	.	2F\	A-	2f\	A-	2c\	A-	2f/	A-	2.ryy	2.ryy	0.r	.	2.r	0.r	.	0.r	.	0.r	.	0.r
8F\	.	.	8A-/	.	8c/	.	8f/	.	.	.	.	.	.	.	.	.	.	.	.	.	.	.	.	.	.	.	.	.
8F\	.	.	8A-/	.	8c/	.	8f/	.	.	.	.	.	.	.	.	.	.	.	.	.	.	.	.	.	.	.	.	.
8F\J	.	.	8A-/	.	8c/	.	8f/J	.	.	.	.	.	.	.	.	.	.	.	.	.	.	.	.	.	.	.	.	.
*Xtremolo	*	*	*	*	*	*	*Xtremolo	*	*	*	*	*	*	*	*	*	*	*	*	*	*	*	*	*	*	*	*	*
!	!	!	!LO:SIC:v:s=8An/	!	!	!	!	!	!	!	!	!	!	!	!	!	!	!	!	!	!	!	!	!	!	!	!	!
8E-\L	x x n	.	8A-/	.	8c/	.	8an/L	.	4E-\	-gnus	4e-\	-gnus	4c\	-gnus	4an\	-gnus	.	.	.	.	.	.	.	.	.	.	.	.
!	!	!	!LO:SIC:v:s=8An/J	!	!	!	!	!	!	!	!	!	!	!	!	!	!	!	!	!	!	!	!	!	!	!	!	!
8E-\J	x x 4	.	8A-/J	.	8c/J	.	8a/J	.	.	.	.	.	.	.	.	.	.	.	.	.	.	.	.	.	.	.	.	.
*	*	*	*Xtremolo	*	*Xtremolo	*	*	*	*	*	*	*	*	*	*	*	*	*	*	*	*	*	*	*	*	*	*	*
!	!	!	!	!	!	!	!	!	!	!	!LO:LB:g=original	!	!	!	!	!	!	!	!	!	!	!	!	!	!	!	!	!
=26	=26	=26	=26	=26	=26	=26	=26	=26	=26	=26	=26	=26	=26	=26	=26	=26	=26	=26	=26	=26	=26	=26	=26	=26	=26	=26	=26	=26
8D/L	x x 6	.	8B-\L	.	8d/L	.	8b-\L	.	4D/	De-	4f\	de-	4d\	de-	4b-\	de-	2.ryy	2.ryy	.	.	2.r	.	.	.	.	.	.	.
8D/	.	.	8B-\	.	8d/	.	8b-\J	.	.	.	.	.	.	.	.	.	.	.	.	.	.	.	.	.	.	.	.	.
!	!	!	!	!	!	!	!LO:LB:g=original	!	!	!	!	!	!	!	!	!	!	!	!	!	!	!	!	!	!	!	!	!
8C/	x x 8	.	8c\	.	8e-/	.	8cc\L	.	4C/	-i	4f\	-i	4e-\	-i	4cc\	-i	.	.	.	.	.	.	.	.	.	.	.	.
8C/	.	.	8c\	.	8e-/	.	8cc\	.	.	.	.	.	.	.	.	.	.	.	.	.	.	.	.	.	.	.	.	.
8BB-/	x x 10	.	8d\	.	8f/	.	8dd\	.	4BB-/	qvi	4f\	qvi	4f\	qui	4dd\	qui	.	.	.	.	.	.	.	.	.	.	.	.
8BB-/J	.	.	8d\J	.	8f/J	.	8dd\J	.	.	.	.	.	.	.	.	.	.	.	.	.	.	.	.	.	.	.	.	.
=27	=27	=27	=27	=27	=27	=27	=27	=27	=27	=27	=27	=27	=27	=27	=27	=27	=27	=27	=27	=27	=27	=27	=27	=27	=27	=27	=27	=27
!LO:TX:t=P:problem:mixed beam	!	!	!LO:TX:t=P:problem:mixed beam	!	!	!	!	!	!	!	!	!	!	!	!	!	!	!	!	!	!	!	!	!	!	!	!	!
8E-\L	x x 6	.	8e-\L	.	8e-/L	.	8cc\L	.	4E-\	tol-	4g\	tol-	4e-\	tol-	4cc\	tol-	2.ryy	2.ryy	.	.	2.r	.	.	.	.	.	.	.
8E-\	.	.	8e-\	.	8e-/	.	8cc\	.	.	.	.	.	.	.	.	.	.	.	.	.	.	.	.	.	.	.	.	.
8F\	x x 4	.	8f\	.	8d/	.	8b-\	.	4F\	-lis	4f\	-lis	4d\	-lis	4b-\	-lis	.	.	.	.	.	.	.	.	.	.	.	.
8F\	.	.	8f\	.	8d/	.	8b-\	.	.	.	.	.	.	.	.	.	.	.	.	.	.	.	.	.	.	.	.	.
8FF/	x x n	.	8F/	.	8c/	.	8an\	.	4F\	pec-	4f\	pec-	4c\	pec-	4an\	pec-	.	.	.	.	.	.	.	.	.	.	.	.
!	!	!	!LO:TX:b:t=V&colon; S.	!	!	!	!	!	!	!	!	!	!	!	!	!	!	!	!	!	!	!	!	!	!	!	!	!
8FF/J	x x 3	.	8F/J	.	8c/J	.	8a\J	.	.	.	.	.	.	.	.	.	.	.	.	.	.	.	.	.	.	.	.	.
!	!	!	!LO:PB:g=original	!	!LO:LB:g=original	!	!	!	!	!	!	!	!	!	!	!	!	!	!	!	!	!	!	!	!	!	!	!
=28	=28	=28	=28	=28	=28	=28	=28	=28	=28	=28	=28	=28	=28	=28	=28	=28	=28	=28	=28	=28	=28	=28	=28	=28	=28	=28	=28	=28
4BB-/	x x 8	.	4B-\	.	4d/	.	4b-\	.	4BB-/	-ca-	4f\	-ca-	4d\	-ca-	4b-\	-ca-	2.ryy	2.ryy	.	.	2.r	.	.	.	.	.	.	.
8BB-\L	x x 8	.	8B-\L	.	4d/	.	4b-\	.	4BB-/	-ta	4f\	-ta	4d\	-ta	4b-\	-ta	.	.	.	.	.	.	.	.	.	.	.	.
8D\	x x 8	.	8d\	.	.	.	.	.	.	.	.	.	.	.	.	.	.	.	.	.	.	.	.	.	.	.	.	.
8F\	x x 8	.	8f\	.	4r	.	4r	.	4r	.	4r	.	4r	.	4r	.	.	.	.	.	.	.	.	.	.	.	.	.
8B-\J	x x 8	.	8b-\J	.	.	.	.	.	.	.	.	.	.	.	.	.	.	.	.	.	.	.	.	.	.	.	.	.
=29	=29	=29	=29	=29	=29	=29	=29	=29	=29	=29	=29	=29	=29	=29	=29	=29	=29	=29	=29	=29	=29	=29	=29	=29	=29	=29	=29	=29
!	!	!	!	!	!	!	!	!	!	!	!	!	!	!	!	!	!	!	!LO:N:vis=00	!	!	!LO:N:vis=00	!	!LO:N:vis=00	!	!LO:N:vis=00	!	!LO:N:vis=00
8F\L	x x 8	.	8F/L	.	8An/L	.	8f/L	.	4F\	de-	4f\	de-	4An/	De-	4f/	de-	2.ryy	2.ryy	0.r	.	2.r	0.r	.	0.r	.	0.r	.	0.r
8F\	x x 8	.	8F/	.	8A/	.	8f/	.	.	.	.	.	.	.	.	.	.	.	.	.	.	.	.	.	.	.	.	.
8En\	x x 3	.	8G/	.	8B-/	.	8g/	.	4En\	-i	4f\	-i	4B-/	-i	4g/	-i	.	.	.	.	.	.	.	.	.	.	.	.
8E\	.	.	8G/	.	8B-/	.	8g/	.	.	.	.	.	.	.	.	.	.	.	.	.	.	.	.	.	.	.	.	.
8E-X\	.	.	8An/	.	8c/	.	8an/	.	4E-X\	qvi	4f\	qvi	4c/	qui	4an/	qui	.	.	.	.	.	.	.	.	.	.	.	.
8E-\J	x x 4	.	8A/J	.	8c/J	.	8a/J	.	.	.	.	.	.	.	.	.	.	.	.	.	.	.	.	.	.	.	.	.
!LO:PB:g=original	!	!	!	!	!	!	!	!	!	!	!	!	!	!	!	!	!	!	!	!	!	!	!	!	!	!	!	!
=30	=30	=30	=30	=30	=30	=30	=30	=30	=30	=30	=30	=30	=30	=30	=30	=30	=30	=30	=30	=30	=30	=30	=30	=30	=30	=30	=30	=30
8D\L	x x 6	.	8B-\L	.	8d/L	.	8b-\L	.	4D/	tol-	4f\	tol-	4d\	tol-	4b-\	tol-	2.ryy	2.ryy	.	.	2.r	.	.	.	.	.	.	.
8D\	.	.	8B-\	.	8d/	.	8b-\	.	.	.	.	.	.	.	.	.	.	.	.	.	.	.	.	.	.	.	.	.
8C\	x x 8	.	8c\	.	8e-/	.	8cc\	.	4C/	-lis	4e-\	-li	4e-\	-lis	4cc\	-lis	.	.	.	.	.	.	.	.	.	.	.	.
8C\	.	.	8c\	.	8e-/	.	8cc\	.	.	.	.	.	.	.	.	.	.	.	.	.	.	.	.	.	.	.	.	.
8BB-\	x x 10	.	8d\	.	8f/	.	8dd\	.	4BB-/	pec-	4d\	pec-	4f\	pec-	4dd\	pec-	.	.	.	.	.	.	.	.	.	.	.	.
8BB-\J	.	.	8d\J	.	8f/J	.	8dd\J	.	.	.	.	.	.	.	.	.	.	.	.	.	.	.	.	.	.	.	.	.
!	!	!	!	!	!	!	!	!	!	!	!	!	!LO:LB:g=original	!	!LO:LB:g=original	!	!	!	!	!	!	!	!	!	!	!	!	!
=31	=31	=31	=31	=31	=31	=31	=31	=31	=31	=31	=31	=31	=31	=31	=31	=31	=31	=31	=31	=31	=31	=31	=31	=31	=31	=31	=31	=31
*tremolo	*	*	*tremolo	*	*tremolo	*	*tremolo	*	*	*	*	*	*	*	*	*	*	*	*	*	*	*	*	*	*	*	*	*
8E-\L	x x 6	.	8e-\L	.	8g/L	.	8cc\L	.	2E-\	-ca-	2e-\	-ca-	2g\	-ca-	2cc\	-ca-	2.ryy	2.ryy	.	.	2.r	.	.	.	.	.	.	.
8E-\	.	.	8e-\	.	8g/	.	8cc\	.	.	.	.	.	.	.	.	.	.	.	.	.	.	.	.	.	.	.	.	.
8E-\	.	.	8e-\	.	8g/	.	8cc\	.	.	.	.	.	.	.	.	.	.	.	.	.	.	.	.	.	.	.	.	.
8E-\J	.	.	8e-\J	.	8g/	.	8cc\J	.	.	.	.	.	.	.	.	.	.	.	.	.	.	.	.	.	.	.	.	.
*Xtremolo	*	*	*Xtremolo	*	*	*	*Xtremolo	*	*	*	*	*	*	*	*	*	*	*	*	*	*	*	*	*	*	*	*	*
8En\L	x x 5	.	8en\L	.	8g/	.	8b-\L	.	4En\	-ta	4g\	-ta	4g\	-ta	4b-\	-ta	.	.	.	.	.	.	.	.	.	.	.	.
8E\J	.	.	8e\J	.	8g/J	.	8b-\J	.	.	.	.	.	.	.	.	.	.	.	.	.	.	.	.	.	.	.	.	.
*	*	*	*	*	*Xtremolo	*	*	*	*	*	*	*	*	*	*	*	*	*	*	*	*	*	*	*	*	*	*	*
!	!	!	!	!	!	!	!	!	!LO:LB:g=original	!	!	!	!	!	!	!	!	!	!	!	!	!	!	!	!	!	!	!
=32	=32	=32	=32	=32	=32	=32	=32	=32	=32	=32	=32	=32	=32	=32	=32	=32	=32	=32	=32	=32	=32	=32	=32	=32	=32	=32	=32	=32
4F\	x x 4	.	4f\	.	4d/	.	4b-\	.	4F\	mun-	4f\	mun-	4d\	mun-	4b-\	mun-	2.ryy	2.ryy	.	.	2.r	.	.	.	.	.	.	.
4FF/	x x n	.	4F/	.	4c/	.	4an/	.	4F\	-di	4f\	-di	4c\	-di	4an\	-di	.	.	.	.	.	.	.	.	.	.	.	.
!	!	!	!	!	!LO:TX:b:t=Verte Cito	!LO:DY:Bi:t=f.	!	!	!	!	!	!	!	!	!	!	!	!	!	!	!	!	!	!	!	!	!	!
4r	.	.	4r	.	4r	f	4r	.	4r	.	4r	.	4r	.	4r	.	.	.	.	.	.	.	.	.	.	.	.	.
!	!	!	!	!	!LO:PB:g=original	!	!	!	!	!	!	!	!	!	!	!	!	!	!	!	!	!	!	!	!	!	!	!
=33	=33	=33	=33||:	=33	=33	=33	=33	=33	=33	=33	=33	=33	=33	=33	=33	=33	=33	=33	=33	=33	=33	=33	=33	=33	=33	=33	=33	=33
*	*	*	*tremolo	*	*tremolo	*	*	*	*	*	*	*	*	*	*	*	*	*	*	*	*	*	*	*	*	*	*	*
!	!	!LO:DY:Bi:t=for&colon;	!	!LO:DY:rj:Bi:t=f&colon;	!	!LO:DY:rj	!	!LO:DY:Bi:t=fr.	!	!	!	!	!	!	!	!	!	!	!	!	!	!	!	!	!	!	!	!
4E-X\	x 4_ 2_	f	16An/LL	f	16c/LL	f	8f/L	f	2E-X\	mi-	2f\	mi-	2an\	mi-	2cc\	mi-	2.ryy	2.ryy	2f\	.	2f\	2c\	.	2a\	.	2cc\	.	4.fff\
.	.	.	16c/	.	16f/	.	.	.	.	.	.	.	.	.	.	.	.	.	.	.	.	.	.	.	.	.	.	.
.	.	.	16An/	.	16c/	.	32f/LL	.	.	.	.	.	.	.	.	.	.	.	.	.	.	.	.	.	.	.	.	.
.	.	.	.	.	.	.	32g/	.	.	.	.	.	.	.	.	.	.	.	.	.	.	.	.	.	.	.	.	.
.	.	.	16c/	.	16f/	.	32an/	.	.	.	.	.	.	.	.	.	.	.	.	.	.	.	.	.	.	.	.	.
.	.	.	.	.	.	.	32g/JJJ	.	.	.	.	.	.	.	.	.	.	.	.	.	.	.	.	.	.	.	.	.
!	!	!	!	!	!	!	!LO:LB:g=original	!	!	!	!	!	!	!	!	!	!	!	!	!	!	!	!	!	!	!	!	!
!	!	!	!	!	!	!	!LO:TX:t=P:problem:mixed beam	!	!	!	!	!	!	!	!	!	!	!	!	!	!	!	!	!	!	!	!	!
4E-\	.	.	16An/	.	16c/	.	8f/L	.	.	.	.	.	.	.	.	.	.	.	.	.	.	.	.	.	.	.	.	.
.	.	.	16c/	.	16f/	.	.	.	.	.	.	.	.	.	.	.	.	.	.	.	.	.	.	.	.	.	.	.
.	.	.	16An/	.	16c/	.	8ff\	.	.	.	.	.	.	.	.	.	.	.	.	.	.	.	.	.	.	.	.	8ff\L
.	.	.	16c/	.	16f/	.	.	.	.	.	.	.	.	.	.	.	.	.	.	.	.	.	.	.	.	.	.	.
4E-\	.	.	16An/	.	16c/	.	8ff\	.	4E-\	-se-	4f\	-se-	4a\	-se-	4cc\	-se-	.	.	4f\	.	4f\	4c\	.	4a\	.	4cc\	.	8ff\
.	.	.	16c/	.	16f/	.	.	.	.	.	.	.	.	.	.	.	.	.	.	.	.	.	.	.	.	.	.	.
.	.	.	16An/	.	16c/	.	8ff\J	.	.	.	.	.	.	.	.	.	.	.	.	.	.	.	.	.	.	.	.	8ff\J
.	.	.	16c/JJ	.	16f/JJ	.	.	.	.	.	.	.	.	.	.	.	.	.	.	.	.	.	.	.	.	.	.	.
!	!	!	!	!	!	!	!	!	!	!	!LO:LB:g=original	!	!	!	!	!	!	!	!LO:LB:g=original	!	!	!	!	!	!	!	!	!
=34	=34	=34	=34:||	=34	=34	=34	=34	=34	=34	=34	=34	=34	=34	=34	=34	=34	=34	=34	=34-	=34	=34	=34	=34	=34	=34	=34	=34	=34
!	!	!	!LO:TX:a:t=P:problem:t.34 zapisany jako repetycja	!	!	!	!	!	!	!	!	!	!LO:SIC:v:s=2.an\	!	!	!	!	!	!	!	!	!	!	!LO:SIC:v:s=2an\	!	!	!	!
4E-\	.	.	16An/LLyy	.	16c/LL	.	16ff\LL	.	2E-\	-re-	2f\	-re-	2a-\	-re-	2cc\	-re-	2.ryy	2.ryy	2f\	.	2f\	2c\	.	2a-\	.	2cc\	.	2ff\
.	.	.	16c/yy	.	16f/	.	16cc\	.	.	.	.	.	.	.	.	.	.	.	.	.	.	.	.	.	.	.	.	.
.	.	.	16An/yy	.	16c/	.	16cc\	.	.	.	.	.	.	.	.	.	.	.	.	.	.	.	.	.	.	.	.	.
.	.	.	16c/yy	.	16f/	.	16cc\JJ	.	.	.	.	.	.	.	.	.	.	.	.	.	.	.	.	.	.	.	.	.
4E-\	.	.	16An/yy	.	16c/	.	16cc\LL	.	.	.	.	.	.	.	.	.	.	.	.	.	.	.	.	.	.	.	.	.
.	.	.	16c/yy	.	16f/	.	16an\	.	.	.	.	.	.	.	.	.	.	.	.	.	.	.	.	.	.	.	.	.
.	.	.	16An/yy	.	16c/	.	16a\	.	.	.	.	.	.	.	.	.	.	.	.	.	.	.	.	.	.	.	.	.
.	.	.	16c/yy	.	16f/	.	16a\JJ	.	.	.	.	.	.	.	.	.	.	.	.	.	.	.	.	.	.	.	.	.
!	!	!	!	!	!	!	!	!	!	!	!	!	!LO:SIC:v:s=4an\	!	!	!	!	!	!	!	!	!	!	!LO:SIC:v:s=4an\	!	!	!	!
4E-\	.	.	16An/yy	.	16c/	.	16a/LL	.	4E-\	-re	4f\	-re	4a-\	-re	4cc\	-re	.	.	4f\	.	4f\	4c\	.	4a-\	.	4cc\	.	4fff\
.	.	.	16c/yy	.	16f/	.	16f/	.	.	.	.	.	.	.	.	.	.	.	.	.	.	.	.	.	.	.	.	.
.	.	.	16An/yy	.	16c/	.	16f/	.	.	.	.	.	.	.	.	.	.	.	.	.	.	.	.	.	.	.	.	.
.	.	.	16c/JJyy	.	16f/JJ	.	16f/JJ	.	.	.	.	.	.	.	.	.	.	.	.	.	.	.	.	.	.	.	.	.
=35	=35	=35	=35||:	=35	=35	=35	=35	=35	=35	=35	=35	=35	=35	=35	=35	=35	=35	=35	=35	=35	=35	=35	=35	=35	=35	=35	=35	=35
*	*	*	*	*	*	*	*	*	*	*ij	*	*	*	*ij	*	*	*	*	*	*	*	*	*	*	*	*	*	*
4D\	x 6 3	.	16B-/LL	.	16d/LL	.	8b-\L	.	2D\	mi-	2f\	mi-	2b-\	mi-	2dd\	mi-	2.ryy	2.ryy	2B-/	.	2f\	2d\	.	2b-\	.	2dd\	.	4.bb-\
.	.	.	16d/	.	16f/	.	.	.	.	.	.	.	.	.	.	.	.	.	.	.	.	.	.	.	.	.	.	.
.	.	.	16B-/	.	16d/	.	32b-\LL	.	.	.	.	.	.	.	.	.	.	.	.	.	.	.	.	.	.	.	.	.
.	.	.	.	.	.	.	32cc\	.	.	.	.	.	.	.	.	.	.	.	.	.	.	.	.	.	.	.	.	.
.	.	.	16d/	.	16f/	.	32dd\	.	.	.	.	.	.	.	.	.	.	.	.	.	.	.	.	.	.	.	.	.
.	.	.	.	.	.	.	32cc\JJJ	.	.	.	.	.	.	.	.	.	.	.	.	.	.	.	.	.	.	.	.	.
4D\	.	.	16B-/	.	16d/	.	8b-\L	.	.	.	.	.	.	.	.	.	.	.	.	.	.	.	.	.	.	.	.	.
.	.	.	16d/	.	16f/	.	.	.	.	.	.	.	.	.	.	.	.	.	.	.	.	.	.	.	.	.	.	.
.	.	.	16B-/	.	16d/	.	8bb-\	.	.	.	.	.	.	.	.	.	.	.	.	.	.	.	.	.	.	.	.	8b-\L
.	.	.	16d/	.	16f/	.	.	.	.	.	.	.	.	.	.	.	.	.	.	.	.	.	.	.	.	.	.	.
4D\	.	.	16B-/	.	16d/	.	8bb-\	.	4D\	-se-	4f\	-se-	4b-\	-se-	4dd\	-se-	.	.	4B-/	.	4f\	4d\	.	4b-\	.	4dd\	.	8b-\
.	.	.	16d/	.	16f/	.	.	.	.	.	.	.	.	.	.	.	.	.	.	.	.	.	.	.	.	.	.	.
.	.	.	16B-/	.	16d/	.	8bb-\J	.	.	.	.	.	.	.	.	.	.	.	.	.	.	.	.	.	.	.	.	8b-\J
.	.	.	16d/JJ	.	16f/JJ	.	.	.	.	.	.	.	.	.	.	.	.	.	.	.	.	.	.	.	.	.	.	.
!	!	!	!	!	!	!	!	!	!	!	!	!	!	!	!	!	!	!	!	!	!LO:LB:g=original	!	!	!	!	!	!	!
=36	=36	=36	=36:||	=36	=36	=36	=36	=36	=36	=36	=36	=36	=36	=36	=36	=36	=36	=36	=36	=36	=36	=36	=36	=36	=36	=36	=36	=36
!	!	!	!LO:TX:a:t=P:problem:t.36 zapisany jako repetycja	!	!	!	!	!	!	!	!	!	!	!	!	!	!	!	!	!	!	!	!	!	!	!	!	!
4D\	x 6 3	.	16B-/LLyy	.	16d/LL	.	16bb-\LL	.	2D\	-re-	2f\	-re-	2b-\	-re-	2dd\	-re-	2.ryy	2.ryy	2B-/	.	2f\	2d\	.	2b-\	.	2dd\	.	2b-\
.	.	.	16d/yy	.	16f/	.	16ff\	.	.	.	.	.	.	.	.	.	.	.	.	.	.	.	.	.	.	.	.	.
.	.	.	16B-/yy	.	16d/	.	16ff\	.	.	.	.	.	.	.	.	.	.	.	.	.	.	.	.	.	.	.	.	.
.	.	.	16d/yy	.	16f/	.	16ff\JJ	.	.	.	.	.	.	.	.	.	.	.	.	.	.	.	.	.	.	.	.	.
4D\	.	.	16B-/yy	.	16d/	.	16ff\LL	.	.	.	.	.	.	.	.	.	.	.	.	.	.	.	.	.	.	.	.	.
.	.	.	16d/yy	.	16f/	.	16dd\	.	.	.	.	.	.	.	.	.	.	.	.	.	.	.	.	.	.	.	.	.
.	.	.	16B-/yy	.	16d/	.	16dd\	.	.	.	.	.	.	.	.	.	.	.	.	.	.	.	.	.	.	.	.	.
.	.	.	16d/yy	.	16f/	.	16dd\JJ	.	.	.	.	.	.	.	.	.	.	.	.	.	.	.	.	.	.	.	.	.
4D\	.	.	16B-/yy	.	16d/	.	16dd\LL	.	4D\	-re	4f\	-re	4b-\	-re	4dd\	-re	.	.	4B-/	.	4f\	4d\	.	4b-\	.	4dd\	.	4bb-\
.	.	.	16d/yy	.	16f/	.	16b-\	.	.	.	.	.	.	.	.	.	.	.	.	.	.	.	.	.	.	.	.	.
.	.	.	16B-/yy	.	16d/	.	16b-\	.	.	.	.	.	.	.	.	.	.	.	.	.	.	.	.	.	.	.	.	.
.	.	.	16d/JJyy	.	16f/JJ	.	16b-\JJ	.	.	.	.	.	.	.	.	.	.	.	.	.	.	.	.	.	.	.	.	.
!LO:LB:g=original	!	!	!	!	!	!	!	!	!	!	!	!	!	!	!	!	!	!	!	!	!	!LO:LB:g=original	!	!	!	!	!	!
=37	=37	=37	=37	=37	=37	=37	=37	=37	=37	=37	=37	=37	=37	=37	=37	=37	=37	=37	=37	=37	=37	=37	=37	=37	=37	=37	=37	=37
4D\	x x 6\	.	16Bn/LL	.	16f/LL	.	8bn\L	.	2D\	mi-	2d\	mi-	2bn\	mi-	2ff\	mi-	2.ryy	2.ryy	2f\	.	2f\	2d\	.	2bX\	.	2dd\	.	4.bbn\
.	.	.	16d/	.	16a-X/	.	.	.	.	.	.	.	.	.	.	.	.	.	.	.	.	.	.	.	.	.	.	.
.	.	.	16Bn/	.	16f/	.	32b\LL	.	.	.	.	.	.	.	.	.	.	.	.	.	.	.	.	.	.	.	.	.
.	.	.	.	.	.	.	32cc\	.	.	.	.	.	.	.	.	.	.	.	.	.	.	.	.	.	.	.	.	.
.	.	.	16d/	.	16a-X/	.	32dd\	.	.	.	.	.	.	.	.	.	.	.	.	.	.	.	.	.	.	.	.	.
.	.	.	.	.	.	.	32cc\JJJ	.	.	.	.	.	.	.	.	.	.	.	.	.	.	.	.	.	.	.	.	.
4D\	.	.	16Bn/	.	16f/	.	8b\L	.	.	.	.	.	.	.	.	.	.	.	.	.	.	.	.	.	.	.	.	.
.	.	.	16d/	.	16a-X/	.	.	.	.	.	.	.	.	.	.	.	.	.	.	.	.	.	.	.	.	.	.	.
.	.	.	16Bn/	.	16f/	.	8bbn\	.	.	.	.	.	.	.	.	.	.	.	.	.	.	.	.	.	.	.	.	8bn\L
.	.	.	16d/	.	16a-X/	.	.	.	.	.	.	.	.	.	.	.	.	.	.	.	.	.	.	.	.	.	.	.
4D\	.	.	16Bn/	.	16f/	.	8bb\	.	4D\	-se-	4d\	-se-	4b\	-se-	4ff\	-se-	.	.	4f\	.	4f\	4d\	.	4b\	.	4dd\	.	8b\
.	.	.	16d/	.	16a-X/	.	.	.	.	.	.	.	.	.	.	.	.	.	.	.	.	.	.	.	.	.	.	.
!	!	!	!	!	!	!	!LO:TX:b:t=V. Subitto&colon;	!	!	!	!	!	!	!	!	!	!	!	!	!	!	!	!	!	!	!	!	!
.	.	.	16Bn/	.	16f/	.	8bb\J	.	.	.	.	.	.	.	.	.	.	.	.	.	.	.	.	.	.	.	.	8b\J
.	.	.	16d/JJ	.	16a-X/JJ	.	.	.	.	.	.	.	.	.	.	.	.	.	.	.	.	.	.	.	.	.	.	.
!	!	!	!	!	!	!	!LO:PB:g=original	!	!	!	!	!	!	!	!	!	!	!	!	!	!	!	!	!	!	!	!	!
=38	=38	=38	=38	=38	=38	=38	=38	=38	=38	=38	=38	=38	=38	=38	=38	=38	=38	=38	=38	=38	=38	=38	=38	=38	=38	=38	=38	=38
!	!	!	!LO:TX:a:t=P:problem:t.38 zapisany jako repetycja	!	!	!	!LO:SIC:v:s=16bbn\LL	!	!	!	!	!	!LO:SIC:v:s=2bn\	!	!	!	!	!	!	!	!	!	!	!LO:SIC:v:s=2bn\	!	!	!	!LO:SIC:v:s=2bn\
4D\	x x 6\	.	16Bn/LLyy	.	16f/LL	.	16bb-\LL	.	2D\	-re-	2d\	-re-	2b-\	-re-	2ff\	-re-	2.ryy	2.ryy	2f\	.	2f\	2d\	.	2b-\	.	2dd\	.	2b-\
.	.	.	16d/yy	.	16a-X/	.	16ff\	.	.	.	.	.	.	.	.	.	.	.	.	.	.	.	.	.	.	.	.	.
.	.	.	16Bn/yy	.	16f/	.	16ff\	.	.	.	.	.	.	.	.	.	.	.	.	.	.	.	.	.	.	.	.	.
.	.	.	16d/yy	.	16a-X/	.	16ff\JJ	.	.	.	.	.	.	.	.	.	.	.	.	.	.	.	.	.	.	.	.	.
4D\	.	.	16Bn/yy	.	16f/	.	16ff\LL	.	.	.	.	.	.	.	.	.	.	.	.	.	.	.	.	.	.	.	.	.
.	.	.	16d/yy	.	16a-X/	.	16dd\	.	.	.	.	.	.	.	.	.	.	.	.	.	.	.	.	.	.	.	.	.
.	.	.	16Bn/yy	.	16f/	.	16dd\	.	.	.	.	.	.	.	.	.	.	.	.	.	.	.	.	.	.	.	.	.
.	.	.	16d/yy	.	16a-X/	.	16dd\JJ	.	.	.	.	.	.	.	.	.	.	.	.	.	.	.	.	.	.	.	.	.
!	!	!	!	!	!	!	!	!	!	!	!	!	!LO:SIC:v:s=4bn\	!	!	!	!	!	!	!	!	!	!	!LO:SIC:v:s=4bn\	!	!	!	!LO:SIC:v:s=4bbn\
4D\	.	.	16Bn/yy	.	16f/	.	16dd\LL	.	4D\	-re	4d\	-re	4b-\	-re	4ff\	-re	.	.	4f\	.	4f\	4d\	.	4b-\	.	4dd\	.	4bb-\
*	*	*	*	*	*	*	*	*	*	*	*	*	*	*Xij	*	*	*	*	*	*	*	*	*	*	*	*	*	*
.	.	.	16d/yy	.	16a-X/	.	16bn\	.	.	.	.	.	.	.	.	.	.	.	.	.	.	.	.	.	.	.	.	.
.	.	.	16Bn/yy	.	16f/	.	16b\	.	.	.	.	.	.	.	.	.	.	.	.	.	.	.	.	.	.	.	.	.
.	.	.	16d/JJyy	.	16a-X/JJ	.	16b\JJ	.	.	.	.	.	.	.	.	.	.	.	.	.	.	.	.	.	.	.	.	.
!	!	!	!	!	!	!	!	!	!	!	!	!	!LO:LB:g=original	!	!	!	!	!	!	!	!	!	!	!LO:LB:g=original	!	!	!	!LO:LB:g=original
=39	=39	=39	=39	=39	=39	=39	=39	=39	=39	=39	=39	=39	=39	=39	=39	=39	=39	=39	=39	=39	=39	=39	=39	=39	=39	=39	=39	=39
4C/	8_ 5_ 3_	.	16c\LL	.	16e-/LL	.	8cc\L	.	2C/	mi-	2c\	mi-	2g\	mi-	2ee-\	mi-	2.ryy	2.ryy	2G/	.	2g\	2e-\	.	2cc\	.	2ee-\	.	4.ccc\
.	.	.	16e-\	.	16g/	.	.	.	.	.	.	.	.	.	.	.	.	.	.	.	.	.	.	.	.	.	.	.
.	.	.	16c\	.	16e-/	.	32cc\LL	.	.	.	.	.	.	.	.	.	.	.	.	.	.	.	.	.	.	.	.	.
.	.	.	.	.	.	.	32dd\	.	.	.	.	.	.	.	.	.	.	.	.	.	.	.	.	.	.	.	.	.
.	.	.	16e-\	.	16g/	.	32ee-\	.	.	.	.	.	.	.	.	.	.	.	.	.	.	.	.	.	.	.	.	.
.	.	.	.	.	.	.	32dd\JJJ	.	.	.	.	.	.	.	.	.	.	.	.	.	.	.	.	.	.	.	.	.
4C/	.	.	16c\	.	16e-/	.	8cc\L	.	.	.	.	.	.	.	.	.	.	.	.	.	.	.	.	.	.	.	.	.
.	.	.	16e-\	.	16g/	.	.	.	.	.	.	.	.	.	.	.	.	.	.	.	.	.	.	.	.	.	.	.
.	.	.	16c\	.	16e-/	.	8ccc\	.	.	.	.	.	.	.	.	.	.	.	.	.	.	.	.	.	.	.	.	8cc\L
.	.	.	16e-\	.	16g/	.	.	.	.	.	.	.	.	.	.	.	.	.	.	.	.	.	.	.	.	.	.	.
4C/	.	.	16c\	.	16e-/	.	8ccc\	.	4C/	-se-	4c\	-se-	4g\	-se-	4ee-\	-se-	.	.	4G/	.	4g\	4e-\	.	4cc\	.	4ee-\	.	8cc\
.	.	.	16e-\	.	16g/	.	.	.	.	.	.	.	.	.	.	.	.	.	.	.	.	.	.	.	.	.	.	.
.	.	.	16c\	.	16e-/	.	8ccc\J	.	.	.	.	.	.	.	.	.	.	.	.	.	.	.	.	.	.	.	.	8cc\J
.	.	.	16e-\JJ	.	16g/JJ	.	.	.	.	.	.	.	.	.	.	.	.	.	.	.	.	.	.	.	.	.	.	.
!	!	!	!LO:LB:g=original	!	!	!	!	!	!	!	!	!	!	!	!	!	!	!	!	!	!	!	!	!	!	!	!	!
=40	=40	=40	=40	=40	=40	=40	=40	=40	=40	=40	=40	=40	=40	=40	=40	=40	=40	=40	=40	=40	=40	=40	=40	=40	=40	=40	=40	=40
4C/	.	.	16c\LL	.	16e-/LL	.	16ccc\LL	.	2C/	-re-	2c\	-re-	2g\	-re-	2ee-\	-re-	2.ryy	2.ryy	2G/	.	2g\	2e-\	.	2cc\	.	2ee-\	.	2cc\
.	.	.	16e-\	.	16g/	.	16gg\	.	.	.	.	.	.	.	.	.	.	.	.	.	.	.	.	.	.	.	.	.
.	.	.	16c\	.	16e-/	.	16gg\	.	.	.	.	.	.	.	.	.	.	.	.	.	.	.	.	.	.	.	.	.
.	.	.	16e-\	.	16g/	.	16gg\JJ	.	.	.	.	.	.	.	.	.	.	.	.	.	.	.	.	.	.	.	.	.
4C/	.	.	16c\	.	16e-/	.	16gg\LL	.	.	.	.	.	.	.	.	.	.	.	.	.	.	.	.	.	.	.	.	.
.	.	.	16e-\	.	16g/	.	16ee-\	.	.	.	.	.	.	.	.	.	.	.	.	.	.	.	.	.	.	.	.	.
.	.	.	16c\	.	16e-/	.	16ee-\	.	.	.	.	.	.	.	.	.	.	.	.	.	.	.	.	.	.	.	.	.
.	.	.	16e-\	.	16g/	.	16ee-\JJ	.	.	.	.	.	.	.	.	.	.	.	.	.	.	.	.	.	.	.	.	.
4C/	.	.	16c\	.	16e-/	.	16ee-\LL	.	4C/	-re	4c\	-re	4g\	-re	4ee-\	-re	.	.	4G/	.	4g\	4e-\	.	4cc\	.	4ee-\	.	4ccc\
*	*	*	*	*	*	*	*	*	*	*Xij	*	*	*	*	*	*	*	*	*	*	*	*	*	*	*	*	*	*
.	.	.	16e-\	.	16g/	.	16cc\	.	.	.	.	.	.	.	.	.	.	.	.	.	.	.	.	.	.	.	.	.
.	.	.	16c\	.	16e-/	.	16cc\	.	.	.	.	.	.	.	.	.	.	.	.	.	.	.	.	.	.	.	.	.
.	.	.	16e-\JJ	.	16g/JJ	.	16cc\JJ	.	.	.	.	.	.	.	.	.	.	.	.	.	.	.	.	.	.	.	.	.
*	*	*	*	*	*Xtremolo	*	*	*	*	*	*	*	*	*	*	*	*	*	*	*	*	*	*	*	*	*	*	*
!	!	!	!	!	!	!	!	!	!LO:LB:g=original	!	!	!	!	!	!	!	!	!	!	!	!	!	!	!	!	!	!	!
=41	=41	=41	=41	=41	=41	=41	=41	=41	=41	=41	=41	=41	=41	=41	=41	=41	=41	=41	=41	=41	=41	=41	=41	=41	=41	=41	=41	=41
*tremolo	*	*	*	*	*	*	*tremolo	*	*	*	*	*	*	*ij	*	*	*	*	*	*	*	*	*	*	*	*	*	*
!	!	!	!	!	!	!	!	!	!	!	!	!	!	!	!	!	!	!	!	!	!LO:TX:a:t=3	!LO:TX:a:t=2	!	!LO:TX:a:t=2	!	!LO:TX:a:t=2	!	!LO:TX:a:t=2.
!	!	!	!	!	!	!	!	!	!	!	!	!	!	!	!	!	!	!	!LO:N:vis=0	!	!LO:N:vis=0	!LO:N:vis=0	!	!LO:N:vis=0	!	!LO:N:vis=0	!	!LO:N:vis=0
8F\L	x x 3	.	8f\L	.	8bn\L	.	8aa-X\L	.	2F\	mi-	2f\	mi-	2bn\	mi-	2aa-\	mi-	2.ryy	2.ryy	1.r	.	1.r	1.r	.	1.r	.	1.r	.	1.r
8F\	.	.	8f\	.	8b\	.	8aa-\	.	.	.	.	.	.	.	.	.	.	.	.	.	.	.	.	.	.	.	.	.
8F\	.	.	8f\	.	8b\	.	8aa-\	.	.	.	.	.	.	.	.	.	.	.	.	.	.	.	.	.	.	.	.	.
8F\J	.	.	8f\J	.	8b\	.	8aa-\J	.	.	.	.	.	.	.	.	.	.	.	.	.	.	.	.	.	.	.	.	.
*Xtremolo	*	*	*Xtremolo	*	*	*	*Xtremolo	*	*	*	*	*	*	*	*	*	*	*	*	*	*	*	*	*	*	*	*	*
!	!	!	!	!	!	!	!	!	!	!	!	!	!LO:SIC:v:s=4cc\	!	!	!	!	!	!	!	!	!	!	!	!	!	!	!
8E-\L	x x 3	.	8e-\L	.	8cc\	.	8gg\L	.	4E-\	-se-	4e-\	-se-	4b\	-se-	4gg\	-se-	.	.	.	.	.	.	.	.	.	.	.	.
8E-\J	.	.	8e-\J	.	8cc\J	.	8gg\J	.	.	.	.	.	.	.	.	.	.	.	.	.	.	.	.	.	.	.	.	.
!	!	!	!	!	!LO:LB:g=original	!	!	!	!	!	!	!	!	!	!LO:LB:g=original	!	!	!	!	!	!	!	!	!	!	!	!	!
=42	=42	=42	=42	=42	=42	=42	=42	=42	=42	=42	=42	=42	=42	=42	=42	=42	=42	=42	=42	=42	=42	=42	=42	=42	=42	=42	=42	=42
*tremolo	*	*	*tremolo	*	*tremolo	*	*tremolo	*	*	*	*	*	*	*	*	*	*	*	*	*	*	*	*	*	*	*	*	*
!	!	!	!	!	!LO:TX:t=P:problem:LO:SIC:v:s=2.b\	!	!	!	!	!	!	!	!	!	!	!	!	!	!	!	!	!	!	!	!	!	!	!
8D\L	x 6\ 3	.	8d\L	.	8b-\L	.	8ff\L	.	2D\	-re-	2d\	-re-	2bn\	-re-	2ff\	-re-	2.ryy	2.ryy	.	.	.	.	.	.	.	.	.	.
8D\	.	.	8d\	.	8b-\	.	8ff\	.	.	.	.	.	.	.	.	.	.	.	.	.	.	.	.	.	.	.	.	.
8D\	.	.	8d\	.	8b-\	.	8ff\	.	.	.	.	.	.	.	.	.	.	.	.	.	.	.	.	.	.	.	.	.
8D\J	.	.	8d\J	.	8b-\	.	8ff\	.	.	.	.	.	.	.	.	.	.	.	.	.	.	.	.	.	.	.	.	.
*Xtremolo	*	*	*Xtremolo	*	*	*	*	*	*	*	*	*	*	*	*	*	*	*	*	*	*	*	*	*	*	*	*	*
8G\L	.	.	8g\L	.	8b-\	.	8ff\	.	4G\	-re	4g\	-re	4b\	-re	4ff\	-re	.	.	.	.	.	.	.	.	.	.	.	.
8G\J	.	.	8g\J	.	8b-\J	.	8ff\J	.	.	.	.	.	.	.	.	.	.	.	.	.	.	.	.	.	.	.	.	.
*	*	*	*	*	*Xtremolo	*	*Xtremolo	*	*	*	*	*	*	*	*	*	*	*	*	*	*	*	*	*	*	*	*	*
=43	=43	=43	=43	=43	=43	=43	=43	=43	=43	=43	=43	=43	=43	=43	=43	=43	=43	=43	=43	=43	=43	=43	=43	=43	=43	=43	=43	=43
*tremolo	*	*	*tremolo	*	*	*	*	*	*	*ij	*	*	*	*	*	*	*	*	*	*	*	*	*	*	*	*	*	*
8A-X\L	x x 6	.	8a-X\L	.	8g/L	.	8ee-\L	.	8A-X\	mi-	8e-\	mi-	8g\	mi-	8ee-\L	mi-	2.ryy	2.ryy	2.r	.	2.r	4e-\	.	4g/	.	4ee-\	.	4eee-\
8A-X\	.	.	8a-X\	.	8g/	.	8ee-\	.	8A-\	-se-	8e-\	-se-	8g\	-se-	8ee-\J	-se-	.	.	.	.	.	.	.	.	.	.	.	.
8A-X\	.	.	8a-X\	.	8f/	.	8dd\	.	4A-\	-re-	4d\	-re-	4f\	-re-	4dd\	-re-	.	.	.	.	.	4d\	.	4f/	.	4dd\	.	4ddd\
8A-X\J	.	.	8a-X\J	.	8f/	.	8dd\	.	.	.	.	.	.	.	.	.	.	.	.	.	.	.	.	.	.	.	.	.
*Xtremolo	*	*	*Xtremolo	*	*	*	*	*	*	*	*	*	*	*	*	*	*	*	*	*	*	*	*	*	*	*	*	*
8F#X\L	x x 7	.	8f#X\L	.	8e-/	.	8cc\	.	4F#X\	-re	4e-\	-re	4e-\	-re	4cc\	-re	.	.	.	.	.	4c\	.	4e-/	.	4cc\	.	4ccc\
*	*	*	*	*	*	*	*	*	*	*Xij	*	*	*	*Xij	*	*	*	*	*	*	*	*	*	*	*	*	*	*
8F#\J	.	.	8f#\J	.	8e-/J	.	8cc\J	.	.	.	.	.	.	.	.	.	.	.	.	.	.	.	.	.	.	.	.	.
!LO:LB:g=original	!	!	!	!	!	!	!LO:LB:g=original	!	!	!	!LO:LB:g=original	!	!	!	!	!	!	!	!	!	!	!	!	!	!	!LO:LB:g=original	!	!
=44	=44	=44	=44	=44	=44	=44	=44	=44	=44	=44	=44	=44	=44	=44	=44	=44	=44	=44	=44	=44	=44	=44	=44	=44	=44	=44	=44	=44
4G\	x x 4	.	4g\	.	4e-/	.	4cc\	.	4G\	no-	4e-\	no-	4e-\	no-	4cc\	no-	2.ryy	2.ryy	4G/	.	4g\	4c\	.	4e-/	.	4cc\	.	4ccc\
8G'\L	x x 3	.	8g\L	.	4d/	.	4bn\	.	4G\	-bis	4d\	-bis	4d\	-bis	4bn\	-bis	.	.	4G/	.	4g\	4Bn\	.	4d/	.	4bX\	.	4bbn\
8F'\	.	.	8fn\	.	.	.	.	.	.	.	.	.	.	.	.	.	.	.	.	.	.	.	.	.	.	.	.	.
8E-'\	.	.	8e-\	.	4r	.	4r	.	4r	.	4r	.	4r	.	4r	.	.	.	4r	.	4r	4r	.	4r	.	4r	.	4r
8D'\J	.	.	8d\J	.	.	.	.	.	.	.	.	.	.	.	.	.	.	.	.	.	.	.	.	.	.	.	.	.
=45	=45	=45	=45	=45	=45	=45	=45	=45	=45	=45	=45	=45	=45	=45	=45	=45	=45	=45	=45	=45	=45	=45	=45	=45	=45	=45	=45	=45
!LO:TX:a:t=Tasto	!	!LO:DY:Bi:t=p&colon;	!	!	!	!	!	!	!LO:TX:a:t=8	!	!LO:TX:a:t=8	!	!LO:TX:a:t=8	!	!LO:TX:a:t=8.	!	!	!	!LO:TX:a:t=8	!	!	!LO:TX:a:t=8	!	!	!	!LO:TX:a:t=8.	!	!LO:TX:a:t=Solo
!	!	!	!	!	!	!LO:DY:rj	!	!LO:DY:rj:Bi:t=p.	!LO:N:vis=00	!	!LO:N;vis=00	!	!LO:N:vis=00	!	!LO:N:vis=00	!	!	!	!LO:N:vis=00	!	!	!LO:N:vis=00	!	!LO:N:vis=00	!	!LO:N:vis=00	!	!
4C/	.	p	4c\	.	8c/L	p	8e-/L	p	0.r	.	0.r	.	0.r	.	0.r	.	2.ryy	2.ryy	0.r	.	4.g\	0.r	.	0.r	.	0.r	.	4.ggg\
.	.	.	.	.	8e-/J	.	8g/J	.	.	.	.	.	.	.	.	.	.	.	.	.	.	.	.	.	.	.	.	.
*	*	*	*	*	*tremolo	*	*tremolo	*	*	*	*	*	*	*	*	*	*	*	*	*	*	*	*	*	*	*	*	*
4r	.	.	4r	.	8e-/L	.	8g/L	.	.	.	.	.	.	.	.	.	.	.	.	.	.	.	.	.	.	.	.	.
.	.	.	.	.	8e-/	.	8g/	.	.	.	.	.	.	.	.	.	.	.	.	.	8e-\L	.	.	.	.	.	.	8eee-\L
4r	.	.	4r	.	8e-/	.	8g/	.	.	.	.	.	.	.	.	.	.	.	.	.	8d\	.	.	.	.	.	.	8ddd\
.	.	.	.	.	8e-/J	.	8g/J	.	.	.	.	.	.	.	.	.	.	.	.	.	8c\J	.	.	.	.	.	.	8ccc\J
*	*	*	*	*	*Xtremolo	*	*Xtremolo	*	*	*	*	*	*	*	*	*	*	*	*	*	*	*	*	*	*	*	*	*
=46	=46	=46	=46	=46	=46	=46	=46||:	=46	=46	=46	=46	=46	=46	=46	=46	=46	=46	=46	=46	=46	=46	=46	=46	=46	=46	=46	=46	=46
4G\	.	.	4d\	.	8Bn/L	.	8d/L	.	.	.	.	.	.	.	.	.	2.ryy	2.ryy	.	.	8c/L	.	.	.	.	.	.	8ccc\L
.	.	.	.	.	8d/J	.	8g/J	.	.	.	.	.	.	.	.	.	.	.	.	.	8BX/J	.	.	.	.	.	.	8bbn\J
*	*	*	*	*	*tremolo	*	*tremolo	*	*	*	*	*	*	*	*	*	*	*	*	*	*	*	*	*	*	*	*	*
4r	.	.	4r	.	8d/L	.	8g/L	.	.	.	.	.	.	.	.	.	.	.	.	.	4B/	.	.	.	.	.	.	4bb\
.	.	.	.	.	8d/	.	8g/	.	.	.	.	.	.	.	.	.	.	.	.	.	.	.	.	.	.	.	.	.
4r	.	.	4r	.	8d/	.	8g/	.	.	.	.	.	.	.	.	.	.	.	.	.	4r	.	.	.	.	.	.	4r
.	.	.	.	.	8d/J	.	8g/J	.	.	.	.	.	.	.	.	.	.	.	.	.	.	.	.	.	.	.	.	.
*	*	*	*	*	*Xtremolo	*	*Xtremolo	*	*	*	*	*	*	*	*	*	*	*	*	*	*	*	*	*	*	*	*	*
=47	=47	=47	=47	=47	=47	=47	=47:||	=47	=47	=47	=47	=47	=47	=47	=47	=47	=47	=47	=47	=47	=47	=47	=47	=47	=47	=47	=47	=47
!	!	!	!	!	!	!	!LO:TX:t=P:problem:t. 47 zapisany repetycją	!	!	!	!	!	!	!	!	!	!	!	!	!	!	!	!	!	!	!	!	!
4G\	.	.	4d\	.	8Bn/L	.	8d/Lyy	.	.	.	.	.	.	.	.	.	2.ryy	2.ryy	.	.	4.g\	.	.	.	.	.	.	4.ggg\
.	.	.	.	.	8d/J	.	8g/Jyy	.	.	.	.	.	.	.	.	.	.	.	.	.	.	.	.	.	.	.	.	.
*	*	*	*	*	*tremolo	*	*tremolo	*	*	*	*	*	*	*	*	*	*	*	*	*	*	*	*	*	*	*	*	*
4r	.	.	4r	.	8d/L	.	8g/Lyy	.	.	.	.	.	.	.	.	.	.	.	.	.	.	.	.	.	.	.	.	.
.	.	.	.	.	8d/	.	8g/yy	.	.	.	.	.	.	.	.	.	.	.	.	.	8d\L	.	.	.	.	.	.	8ddd\L
4r	.	.	4r	.	8d/	.	8g/yy	.	.	.	.	.	.	.	.	.	.	.	.	.	8g\	.	.	.	.	.	.	8ggg\
.	.	.	.	.	8d/J	.	8g/Jyy	.	.	.	.	.	.	.	.	.	.	.	.	.	8f\J	.	.	.	.	.	.	8fff\J
*	*	*	*	*	*Xtremolo	*	*Xtremolo	*	*	*	*	*	*	*	*	*	*	*	*	*	*	*	*	*	*	*	*	*
!	!	!	!	!	!	!	!	!	!	!	!	!	!	!	!	!	!	!	!	!	!LO:LB:g=original	!	!	!	!	!	!	!
=48	=48	=48	=48	=48	=48	=48	=48	=48	=48	=48	=48	=48	=48	=48	=48	=48	=48	=48	=48	=48	=48	=48	=48	=48	=48	=48	=48	=48
4C/	.	.	4c\	.	8c/L	.	8e-/L	.	.	.	.	.	.	.	.	.	2.ryy	2.ryy	.	.	8f\L	.	.	.	.	.	.	8fff\L
.	.	.	.	.	8e-/J	.	8g/J	.	.	.	.	.	.	.	.	.	.	.	.	.	8e-\J	.	.	.	.	.	.	8eee-\J
*	*	*	*	*	*tremolo	*	*tremolo	*	*	*	*	*	*	*	*	*	*	*	*	*	*	*	*	*	*	*	*	*
4r	.	.	4r	.	8e-/L	.	8g/L	.	.	.	.	.	.	.	.	.	.	.	.	.	4e-\	.	.	.	.	.	.	4eee-\
.	.	.	.	.	8e-/	.	8g/	.	.	.	.	.	.	.	.	.	.	.	.	.	.	.	.	.	.	.	.	.
4r	.	.	4r	.	8e-/	.	8g/	.	.	.	.	.	.	.	.	.	.	.	.	.	4r	.	.	.	.	.	.	4r
.	.	.	.	.	8e-/J	.	8g/J	.	.	.	.	.	.	.	.	.	.	.	.	.	.	.	.	.	.	.	.	.
*	*	*	*	*	*Xtremolo	*	*Xtremolo	*	*	*	*	*	*	*	*	*	*	*	*	*	*	*	*	*	*	*	*	*
=49	=49	=49	=49	=49	=49	=49	=49	=49	=49	=49	=49	=49	=49	=49	=49	=49	=49	=49	=49	=49	=49	=49	=49	=49	=49	=49	=49	=49
!	!	!	!	!	!	!	!	!	!LO:N:vis=00	!	!LO:N:vis=00	!	!LO:N:vis=00	!	!LO:N:vis=00	!	!	!	!LO:N:vis=00	!	!	!LO:N:vis=00	!	!LO:N:vis=00	!	!LO:N:vis=00	!	!
4C/	.	.	4c\	.	8c/L	.	8en/L	.	0.r	.	0.r	.	0.r	.	0.r	.	2.ryy	2.ryy	0.r	.	4.cc\	0.r	.	0.r	.	0.r	.	4.ccc\
!	!	!	!	!	!LO:SIC:v:s=8en/J	!	!	!	!	!	!	!	!	!	!	!	!	!	!	!	!	!	!	!	!	!	!	!
.	.	.	.	.	8e-/J	.	8g/J	.	.	.	.	.	.	.	.	.	.	.	.	.	.	.	.	.	.	.	.	.
*	*	*	*	*	*tremolo	*	*tremolo	*	*	*	*	*	*	*	*	*	*	*	*	*	*	*	*	*	*	*	*	*
!	!	!	!	!	!LO:TX:t=P:problem:LO:SIC:v:s=2en/	!	!	!	!	!	!	!	!	!	!	!	!	!	!	!	!	!	!	!	!	!	!	!
4r	.	.	4r	.	8e-/L	.	8g/L	.	.	.	.	.	.	.	.	.	.	.	.	.	.	.	.	.	.	.	.	.
.	.	.	.	.	8e-/	.	8g/	.	.	.	.	.	.	.	.	.	.	.	.	.	8g\L	.	.	.	.	.	.	8gg\L
4r	.	.	4r	.	8e-/	.	8g/	.	.	.	.	.	.	.	.	.	.	.	.	.	8cc\	.	.	.	.	.	.	8ccc\
.	.	.	.	.	8e-/J	.	8g/J	.	.	.	.	.	.	.	.	.	.	.	.	.	8b-\J	.	.	.	.	.	.	8bb-X\J
*	*	*	*	*	*Xtremolo	*	*Xtremolo	*	*	*	*	*	*	*	*	*	*	*	*	*	*	*	*	*	*	*	*	*
!	!	!	!	!	!LO:LB:g=original	!	!	!	!	!	!	!	!	!	!	!	!	!	!	!	!	!	!	!	!	!	!	!LO:LB:g=original
=50	=50	=50	=50	=50	=50	=50	=50	=50	=50	=50	=50	=50	=50	=50	=50	=50	=50	=50	=50	=50	=50	=50	=50	=50	=50	=50	=50	=50
!	!	!	!	!	!	!	!	!	!	!	!	!	!	!	!	!	!	!	!	!	!	!	!	!	!	!	!	!LO:TX:t=P:problem:przed 8bb- usunięty kasownik
4F\	.	.	4A-/	.	8f/L	.	8a-X\L	.	.	.	.	.	.	.	.	.	2.ryy	2.ryy	.	.	8b-\L	.	.	.	.	.	.	8bb-\L
.	.	.	.	.	8a-X/J	.	8cc\J	.	.	.	.	.	.	.	.	.	.	.	.	.	8a-\J	.	.	.	.	.	.	8aa-X\J
*	*	*	*	*	*tremolo	*	*tremolo	*	*	*	*	*	*	*	*	*	*	*	*	*	*	*	*	*	*	*	*	*
4r	.	.	4r	.	8a-/L	.	8cc\L	.	.	.	.	.	.	.	.	.	.	.	.	.	4a-\	.	.	.	.	.	.	4aa-\
.	.	.	.	.	8a-/	.	8cc\	.	.	.	.	.	.	.	.	.	.	.	.	.	.	.	.	.	.	.	.	.
4r	.	.	4r	.	8a-/	.	8cc\	.	.	.	.	.	.	.	.	.	.	.	.	.	4r	.	.	.	.	.	.	4r
.	.	.	.	.	8a-/J	.	8cc\J	.	.	.	.	.	.	.	.	.	.	.	.	.	.	.	.	.	.	.	.	.
*	*	*	*	*	*Xtremolo	*	*Xtremolo	*	*	*	*	*	*	*	*	*	*	*	*	*	*	*	*	*	*	*	*	*
=51	=51	=51	=51	=51	=51	=51	=51	=51	=51	=51	=51	=51	=51	=51	=51	=51	=51	=51	=51	=51	=51	=51	=51	=51	=51	=51	=51	=51
4BB-/	.	.	4B-X/	.	8d/L	.	8f/L	.	.	.	.	.	.	.	.	.	2.ryy	2.ryy	.	.	4.b-\	.	.	.	.	.	.	4.bb-X\
.	.	.	.	.	8f/J	.	8a-/J	.	.	.	.	.	.	.	.	.	.	.	.	.	.	.	.	.	.	.	.	.
*	*	*	*	*	*tremolo	*	*tremolo	*	*	*	*	*	*	*	*	*	*	*	*	*	*	*	*	*	*	*	*	*
4r	.	.	4r	.	8f/L	.	8a-/L	.	.	.	.	.	.	.	.	.	.	.	.	.	.	.	.	.	.	.	.	.
.	.	.	.	.	8f/	.	8a-/	.	.	.	.	.	.	.	.	.	.	.	.	.	8f\L	.	.	.	.	.	.	8ff\L
4r	.	.	4r	.	8f/	.	8a-/	.	.	.	.	.	.	.	.	.	.	.	.	.	8b-\	.	.	.	.	.	.	8bb-\
.	.	.	.	.	8f/J	.	8a-/J	.	.	.	.	.	.	.	.	.	.	.	.	.	8a-\J	.	.	.	.	.	.	8aa-X\J
*	*	*	*	*	*Xtremolo	*	*Xtremolo	*	*	*	*	*	*	*	*	*	*	*	*	*	*	*	*	*	*	*	*	*
!LO:LB:g=original	!	!	!LO:LB:g=original	!	!	!	!	!	!	!	!	!	!	!	!	!	!	!	!	!	!	!	!	!	!	!	!	!
=52	=52	=52	=52	=52	=52	=52	=52	=52	=52	=52	=52	=52	=52	=52	=52	=52	=52	=52	=52	=52	=52	=52	=52	=52	=52	=52	=52	=52
4E-\	.	.	4G/	.	8e-/L	.	8g/L	.	.	.	.	.	.	.	.	.	2.ryy	2.ryy	.	.	8a-\L	.	.	.	.	.	.	8aa-\L
.	.	.	.	.	8g/J	.	8b-/J	.	.	.	.	.	.	.	.	.	.	.	.	.	8g\J	.	.	.	.	.	.	8gg\J
*	*	*	*	*	*tremolo	*	*tremolo	*	*	*	*	*	*	*	*	*	*	*	*	*	*	*	*	*	*	*	*	*
4r	.	.	4r	.	8g/L	.	8b-/L	.	.	.	.	.	.	.	.	.	.	.	.	.	4g\	.	.	.	.	.	.	4gg\
.	.	.	.	.	8g/	.	8b-/	.	.	.	.	.	.	.	.	.	.	.	.	.	.	.	.	.	.	.	.	.
4r	.	.	4r	.	8g/	.	8b-/	.	.	.	.	.	.	.	.	.	.	.	.	.	4r	.	.	.	.	.	.	4r
.	.	.	.	.	8g/J	.	8b-/J	.	.	.	.	.	.	.	.	.	.	.	.	.	.	.	.	.	.	.	.	.
*	*	*	*	*	*	*	*Xtremolo	*	*	*	*	*	*	*	*	*	*	*	*	*	*	*	*	*	*	*	*	*
!	!	!	!	!	!	!	!	!	!	!	!	!	!LO:LB:g=original	!	!	!	!	!	!	!	!	!	!	!	!	!	!	!
=53	=53	=53	=53||:	=53	=53	=53	=53||:	=53	=53	=53	=53	=53	=53	=53	=53	=53	=53	=53	=53	=53	=53	=53	=53	=53	=53	=53	=53	=53
*	*	*	*tremolo	*	*	*	*	*	*	*	*	*	*	*	*	*	*	*	*	*	*	*	*	*	*	*	*	*
!	!	!LO:DY:Bi:t=for&colon;	!	!LO:DY:rj:Bi:t=f.	!	!	!	!LO:DY:rj:Bi:t=f.	!LO:SIC:v:s=2A-\	!	!	!	!	!	!	!	!	!	!	!	!	!	!	!	!	!	!	!
4A-\	x x 4	f	16A-/LL	f	16f/LL	.	8b-\L	f	2A\	A-	2B-\	A-	2dd\	A-	2ff\	A-	2.ryy	2.ryy	2B-/	.	2f\	2d\	.	2dd\	.	2ff\	.	2ddd\
.	.	.	16B-/	.	16B-/	.	.	.	.	.	.	.	.	.	.	.	.	.	.	.	.	.	.	.	.	.	.	.
.	.	.	16A-/	.	16f/	.	32b-\LL	.	.	.	.	.	.	.	.	.	.	.	.	.	.	.	.	.	.	.	.	.
.	.	.	.	.	.	.	32cc\	.	.	.	.	.	.	.	.	.	.	.	.	.	.	.	.	.	.	.	.	.
.	.	.	16B-/	.	16B-/	.	32dd\	.	.	.	.	.	.	.	.	.	.	.	.	.	.	.	.	.	.	.	.	.
.	.	.	.	.	.	.	32cc\JJJ	.	.	.	.	.	.	.	.	.	.	.	.	.	.	.	.	.	.	.	.	.
4A-\	.	.	16A-/	.	16f/	.	8b-\L	.	.	.	.	.	.	.	.	.	.	.	.	.	.	.	.	.	.	.	.	.
.	.	.	16B-/	.	16B-/	.	.	.	.	.	.	.	.	.	.	.	.	.	.	.	.	.	.	.	.	.	.	.
.	.	.	16A-/	.	16f/	.	8bb-\	.	.	.	.	.	.	.	.	.	.	.	.	.	.	.	.	.	.	.	.	.
.	.	.	16B-/	.	16B-/	.	.	.	.	.	.	.	.	.	.	.	.	.	.	.	.	.	.	.	.	.	.	.
!	!	!	!	!	!	!	!	!	!LO:SIC:v:s=4A-\	!	!	!	!	!	!	!	!	!	!	!	!	!	!	!	!	!	!	!
4A-\	.	.	16A-/	.	16f/	.	8bb-\	.	4A\	-gnus	4B-\	-gnus	4dd\	-gnus	4ff\	-gnus	.	.	4B-/	.	4f\	4d\	.	4dd\	.	4ff\	.	4ddd\
.	.	.	16B-/	.	16B-/	.	.	.	.	.	.	.	.	.	.	.	.	.	.	.	.	.	.	.	.	.	.	.
.	.	.	16A-/	.	16f/	.	8bb-\J	.	.	.	.	.	.	.	.	.	.	.	.	.	.	.	.	.	.	.	.	.
.	.	.	16B-/JJ	.	16B-/JJ	.	.	.	.	.	.	.	.	.	.	.	.	.	.	.	.	.	.	.	.	.	.	.
!	!	!	!	!	!	!	!	!	!LO:LB:g=original	!	!	!	!	!	!	!	!	!	!	!	!	!LO:LB:g=original	!	!	!	!	!	!
=54	=54	=54	=54:||	=54	=54	=54	=54	=54	=54	=54	=54	=54	=54	=54	=54	=54	=54	=54	=54	=54	=54	=54	=54	=54	=54	=54	=54	=54
!	!	!	!LO:TX:t=P:problem:t. 54 zapisany jako repetycja	!	!	!	!	!	!LO:SIC:v:s=4A-\	!	!	!	!	!	!	!	!	!	!	!	!	!	!	!	!	!	!	!
4A-\	x x 4	.	16A-/LLyy	.	16f/LL	.	16bb-\LL	.	4A\	De-	4B-\	de-	4dd\	De-	4ff\	de-	2.ryy	2.ryy	2B-/	.	2f\	2d\	.	2dd\	.	2ff\	.	2ddd\
.	.	.	16B-/yy	.	16B-/	.	16b-\	.	.	.	.	.	.	.	.	.	.	.	.	.	.	.	.	.	.	.	.	.
.	.	.	16A-/yy	.	16f/	.	16b-\	.	.	.	.	.	.	.	.	.	.	.	.	.	.	.	.	.	.	.	.	.
.	.	.	16B-/yy	.	16B-/	.	16b-\JJ	.	.	.	.	.	.	.	.	.	.	.	.	.	.	.	.	.	.	.	.	.
!	!	!	!	!	!	!	!LO:LB:g=original	!	!	!	!	!	!	!	!	!	!	!	!	!	!	!	!	!	!	!	!	!
!	!	!	!	!	!	!	!	!LO:DY:rj:Bi:t=f.	!LO:SIC:v:s=4A-\	!	!	!	!	!	!	!	!	!	!	!	!	!	!	!	!	!	!	!
4A-\	.	.	16A-/yy	.	16f/	.	16cc-X\LL	f	4A\	-i	4B-\	-i	4dd\	-i	4ff\	-i	.	.	.	.	.	.	.	.	.	.	.	.
.	.	.	16B-/yy	.	16B-/	.	16b-\	.	.	.	.	.	.	.	.	.	.	.	.	.	.	.	.	.	.	.	.	.
.	.	.	16A-/yy	.	16f/	.	16b-\	.	.	.	.	.	.	.	.	.	.	.	.	.	.	.	.	.	.	.	.	.
.	.	.	16B-/yy	.	16B-/	.	16b-\JJ	.	.	.	.	.	.	.	.	.	.	.	.	.	.	.	.	.	.	.	.	.
!	!	!	!	!	!	!	!	!	!LO:SIC:v:s=4A-\	!	!	!	!	!	!	!	!	!	!	!	!	!	!	!	!	!	!	!
4A-\	.	.	16A-/yy	.	16f/	.	16cc-\LL	.	4A\	qvi	4B-\	qvi	4dd\	qui	4ff\	qui	.	.	4B-/	.	4f\	4d\	.	4dd\	.	4ff\	.	4ddd\
.	.	.	16B-/yy	.	16B-/	.	16b-\	.	.	.	.	.	.	.	.	.	.	.	.	.	.	.	.	.	.	.	.	.
.	.	.	16A-/yy	.	16f/	.	16b-\	.	.	.	.	.	.	.	.	.	.	.	.	.	.	.	.	.	.	.	.	.
.	.	.	16B-/JJyy	.	16B-/JJ	.	16b-\JJ	.	.	.	.	.	.	.	.	.	.	.	.	.	.	.	.	.	.	.	.	.
!	!	!	!	!	!	!	!	!	!	!	!	!	!	!	!	!	!	!	!LO:LB:g=original	!	!	!	!	!	!	!	!	!
=55	=55	=55	=55	=55	=55	=55	=55:||	=55	=55	=55	=55	=55	=55	=55	=55	=55	=55	=55	=55	=55	=55	=55	=55	=55	=55	=55	=55	=55
!	!	!	!	!	!	!	!LO:TX:t=P:problem:t. 55-56 zapisane jako repetycja	!	!	!	!	!	!	!	!	!	!	!	!	!	!	!	!	!	!	!	!	!
4G\	x x 6	.	16G/LL	.	16e-/LL	.	8b-\Lyy	.	4G\	tol-	4B-\	tol-	4ee-\	tol-	4gg\	tol-	2.ryy	2.ryy	2e-\	.	2g\	2e-\	.	2ee-\	.	2gg\	.	2eee-\
.	.	.	16B-/	.	16B-/	.	.	.	.	.	.	.	.	.	.	.	.	.	.	.	.	.	.	.	.	.	.	.
.	.	.	16G/	.	16e-/	.	32b-\LLyy	.	.	.	.	.	.	.	.	.	.	.	.	.	.	.	.	.	.	.	.	.
.	.	.	.	.	.	.	32cc\yy	.	.	.	.	.	.	.	.	.	.	.	.	.	.	.	.	.	.	.	.	.
.	.	.	16B-/	.	16B-/	.	32dd\yy	.	.	.	.	.	.	.	.	.	.	.	.	.	.	.	.	.	.	.	.	.
.	.	.	.	.	.	.	32cc\JJJyy	.	.	.	.	.	.	.	.	.	.	.	.	.	.	.	.	.	.	.	.	.
4G\	.	.	16G/	.	16e-/	.	8b-\Lyy	.	4G\	-lis	4B-\	-lis	4ee-\	-lis	4gg\	-lis	.	.	.	.	.	.	.	.	.	.	.	.
.	.	.	16B-/	.	16B-/	.	.	.	.	.	.	.	.	.	.	.	.	.	.	.	.	.	.	.	.	.	.	.
.	.	.	16G/	.	16e-/	.	8bb-\yy	.	.	.	.	.	.	.	.	.	.	.	.	.	.	.	.	.	.	.	.	.
.	.	.	16B-/	.	16B-/	.	.	.	.	.	.	.	.	.	.	.	.	.	.	.	.	.	.	.	.	.	.	.
4G\	.	.	16G/	.	16e-/	.	8bb-\yy	.	4G\	pec-	4B-\	pec-	4ee-\	pec-	4gg\	pec-	.	.	4e-\	.	4g\	4e-\	.	4ee-\	.	4gg\	.	4eee-\
.	.	.	16B-/	.	16B-/	.	.	.	.	.	.	.	.	.	.	.	.	.	.	.	.	.	.	.	.	.	.	.
.	.	.	16G/	.	16e-/	.	8bb-\Jyy	.	.	.	.	.	.	.	.	.	.	.	.	.	.	.	.	.	.	.	.	.
.	.	.	16B-/JJ	.	16B-/JJ	.	.	.	.	.	.	.	.	.	.	.	.	.	.	.	.	.	.	.	.	.	.	.
=56	=56	=56	=56	=56	=56	=56	=56	=56	=56	=56	=56	=56	=56	=56	=56	=56	=56	=56	=56	=56	=56	=56	=56	=56	=56	=56	=56	=56
4G\	x x 6	.	16G/LL	.	16e-/LL	.	16bb-\LLyy	.	2G\	-ca-	2B-\	-ca-	2ee-\	-ca-	2gg\	-ca-	2.ryy	2.ryy	2e-\	.	2g\	2e-\	.	2ee-\	.	2gg\	.	2eee-\
.	.	.	16B-/	.	16B-/	.	16b-\yy	.	.	.	.	.	.	.	.	.	.	.	.	.	.	.	.	.	.	.	.	.
.	.	.	16G/	.	16e-/	.	16b-\yy	.	.	.	.	.	.	.	.	.	.	.	.	.	.	.	.	.	.	.	.	.
.	.	.	16B-/	.	16B-/	.	16b-\JJyy	.	.	.	.	.	.	.	.	.	.	.	.	.	.	.	.	.	.	.	.	.
4G\	.	.	16G/	.	16e-/	.	16cc-X\LLyy	.	.	.	.	.	.	.	.	.	.	.	.	.	.	.	.	.	.	.	.	.
.	.	.	16B-/	.	16B-/	.	16b-\yy	.	.	.	.	.	.	.	.	.	.	.	.	.	.	.	.	.	.	.	.	.
.	.	.	16G/	.	16e-/	.	16b-\yy	.	.	.	.	.	.	.	.	.	.	.	.	.	.	.	.	.	.	.	.	.
.	.	.	16B-/	.	16B-/	.	16b-\JJyy	.	.	.	.	.	.	.	.	.	.	.	.	.	.	.	.	.	.	.	.	.
4G\	.	.	16G/	.	16e-/	.	16cc-\LLyy	.	4G\	-ta	4B-\	-ta	4ee-\	-ta	4gg\	-ta	.	.	4e-\	.	4g\	4e-\	.	4ee-\	.	4gg\	.	4eee-\
.	.	.	16B-/	.	16B-/	.	16b-\yy	.	.	.	.	.	.	.	.	.	.	.	.	.	.	.	.	.	.	.	.	.
.	.	.	16G/	.	16e-/	.	16b-\yy	.	.	.	.	.	.	.	.	.	.	.	.	.	.	.	.	.	.	.	.	.
.	.	.	16B-/JJ	.	16B-/JJ	.	16b-\JJyy	.	.	.	.	.	.	.	.	.	.	.	.	.	.	.	.	.	.	.	.	.
!	!	!	!	!	!	!	!	!	!	!	!	!	!	!	!	!	!	!	!	!	!LO:LB:g=original	!	!	!LO:PB:g=original	!	!	!	!
=57	=57	=57	=57	=57	=57	=57	=57	=57	=57	=57	=57	=57	=57	=57	=57	=57	=57	=57	=57	=57	=57	=57	=57	=57	=57	=57	=57	=57
!	!	!	!	!	!	!	!LO:TX:t=P:problem:błędnie oznaczony początek repetycji	!	!	!	!	!	!	!	!	!	!	!	!	!	!	!	!	!	!	!	!	!
4D\	x x 5	.	16d\LL	.	16a-X/LL	.	8b-\L	.	4D\	pec-	4f\	pec-	4b-\	pec-	4aa-\	pec-	2.ryy	2.ryy	2f\	.	2a-\	2f\	.	2ff\	.	2aa-\	.	2fff\
.	.	.	16B-\	.	16B-/	.	.	.	.	.	.	.	.	.	.	.	.	.	.	.	.	.	.	.	.	.	.	.
.	.	.	16d\	.	16a-X/	.	32b-\LL	.	.	.	.	.	.	.	.	.	.	.	.	.	.	.	.	.	.	.	.	.
.	.	.	.	.	.	.	32ccn\	.	.	.	.	.	.	.	.	.	.	.	.	.	.	.	.	.	.	.	.	.
.	.	.	16B-\	.	16B-/	.	32dd\	.	.	.	.	.	.	.	.	.	.	.	.	.	.	.	.	.	.	.	.	.
.	.	.	.	.	.	.	32cc\JJJ	.	.	.	.	.	.	.	.	.	.	.	.	.	.	.	.	.	.	.	.	.
4D\	.	.	16d\	.	16a-X/	.	8b-\L	.	4D\	-ca-	4f\	-ca-	4b-\	-ca-	4aa-\	-ca-	.	.	.	.	.	.	.	.	.	.	.	.
.	.	.	16B-\	.	16B-/	.	.	.	.	.	.	.	.	.	.	.	.	.	.	.	.	.	.	.	.	.	.	.
.	.	.	16d\	.	16a-X/	.	8bb-\	.	.	.	.	.	.	.	.	.	.	.	.	.	.	.	.	.	.	.	.	.
.	.	.	16B-\	.	16B-/	.	.	.	.	.	.	.	.	.	.	.	.	.	.	.	.	.	.	.	.	.	.	.
4D\	.	.	16d\	.	16a-X/	.	8bb-\	.	4D\	-ta	4f\	-ta	4b-\	-ta	4aa-\	-ta	.	.	4f\	.	4a-\	4f\	.	4ff\	.	4aa-\	.	4fff\
.	.	.	16B-\	.	16B-/	.	.	.	.	.	.	.	.	.	.	.	.	.	.	.	.	.	.	.	.	.	.	.
.	.	.	16d\	.	16a-X/	.	8bb-\J	.	.	.	.	.	.	.	.	.	.	.	.	.	.	.	.	.	.	.	.	.
.	.	.	16B-\JJ	.	16B-/JJ	.	.	.	.	.	.	.	.	.	.	.	.	.	.	.	.	.	.	.	.	.	.	.
=58	=58	=58	=58	=58	=58	=58	=58	=58	=58	=58	=58	=58	=58	=58	=58	=58	=58	=58	=58	=58	=58	=58	=58	=58	=58	=58	=58	=58
!	!	!	!LO:TX:t=P:problem:LON:vis=2	!	!	!	!	!	!	!	!	!	!	!	!LO:TX:t=P:problem:po 2aa- usunięta kreska taktowa	!	!	!	!	!	!	!	!	!	!	!	!	!
4D\	x x 5	.	16d\LL	.	16a-/LL	.	16bb-\LL	.	2D\	mun-	2f\	mun-	2b-\	mun-	2aa-\	mun-	2.ryy	2.ryy	2f\	.	2a-\	2f\	.	2ff\	.	2aa-\	.	2fff\
.	.	.	16B-\	.	16B-/	.	16b-\	.	.	.	.	.	.	.	.	.	.	.	.	.	.	.	.	.	.	.	.	.
.	.	.	16d\	.	16a-/	.	16b-\	.	.	.	.	.	.	.	.	.	.	.	.	.	.	.	.	.	.	.	.	.
.	.	.	16B-\	.	16B-/	.	16b-\JJ	.	.	.	.	.	.	.	.	.	.	.	.	.	.	.	.	.	.	.	.	.
4D\	.	.	16d\	.	16a-/	.	16cc-X\LL	.	.	.	.	.	.	.	.	.	.	.	.	.	.	.	.	.	.	.	.	.
!	!	!	!LO:TX:t=P:problem:LON:vis=2	!	!	!	!	!	!	!	!	!	!	!	!	!	!	!	!	!	!	!	!	!	!	!	!	!
.	.	.	16B-\	.	16B-/	.	16b-\	.	.	.	.	.	.	.	.	.	.	.	.	.	.	.	.	.	.	.	.	.
.	.	.	16d\	.	16a-/	.	16b-\	.	.	.	.	.	.	.	.	.	.	.	.	.	.	.	.	.	.	.	.	.
.	.	.	16B-\	.	16B-/	.	16b-\JJ	.	.	.	.	.	.	.	.	.	.	.	.	.	.	.	.	.	.	.	.	.
4D\	.	.	16d\	.	16a-/	.	16cc-X\LL	.	4D\	-di	4f\	-di	4b-\	-di	4aa-\	-di	.	.	4f\	.	4a-\	4f\	.	4ff\	.	4aa-\	.	4fff\
.	.	.	16B-\	.	16B-/	.	16b-\	.	.	.	.	.	.	.	.	.	.	.	.	.	.	.	.	.	.	.	.	.
.	.	.	16d\	.	16a-/	.	16b-\	.	.	.	.	.	.	.	.	.	.	.	.	.	.	.	.	.	.	.	.	.
.	.	.	16B-\JJ	.	16B-/JJ	.	16b-\JJ	.	.	.	.	.	.	.	.	.	.	.	.	.	.	.	.	.	.	.	.	.
*	*	*	*Xtremolo	*	*	*	*	*	*	*	*	*	*	*	*	*	*	*	*	*	*	*	*	*	*	*	*	*
!	!	!	!	!	!LO:LB:g=original	!	!	!	!	!	!	!	!LO:LB:g=original	!	!	!	!	!	!	!	!	!	!	!	!	!	!	!
=59	=59	=59	=59	=59	=59	=59	=59	=59	=59	=59	=59	=59	=59	=59	=59	=59	=59	=59	=59	=59	=59	=59	=59	=59	=59	=59	=59	=59
8E-\L	x x 3	.	8e-\L	.	16b-/LL	.	16gg\LL	.	(4E-\	mi-	4e-\	mi-	(4b-\	mi-	4gg\	mi-	2.ryy	2.ryy	4e-\	.	4g\	4g\	.	4b-\	.	4gg\	.	4ggg\
.	.	.	.	.	16b-/	.	16bb-\	.	.	.	.	.	.	.	.	.	.	.	.	.	.	.	.	.	.	.	.	.
8E-\	.	.	8e-\	.	16b-/	.	16gg\	.	.	.	.	.	.	.	.	.	.	.	.	.	.	.	.	.	.	.	.	.
.	.	.	.	.	16b-/JJ	.	16bb-\JJ	.	.	.	.	.	.	.	.	.	.	.	.	.	.	.	.	.	.	.	.	.
8F\	x x 3	.	8f\	.	16a-/LL	.	16dd\LL	.	4F\)	.	4f\	.	4a-\)	.	4ff\	.	.	.	4B-/	.	4f\	4f\	.	4a-\	.	4ff\	.	4fff\
.	.	.	.	.	16a-/	.	16ff\	.	.	.	.	.	.	.	.	.	.	.	.	.	.	.	.	.	.	.	.	.
8F\	.	.	8f\	.	16a-/	.	16dd\	.	.	.	.	.	.	.	.	.	.	.	.	.	.	.	.	.	.	.	.	.
.	.	.	.	.	16a-/JJ	.	16ff\JJ	.	.	.	.	.	.	.	.	.	.	.	.	.	.	.	.	.	.	.	.	.
8G\	x x 3	.	8g\	.	16g/LL	.	16ee-\LL	.	4G\	-se-	4g\	se-	4g\	-se-	4ee-\	-se-	.	.	4G/	.	4e-\	4e-\	.	4g\	.	4ee-\	.	4eee-\
.	.	.	.	.	16g/	.	16gg\	.	.	.	.	.	.	.	.	.	.	.	.	.	.	.	.	.	.	.	.	.
8G\J	.	.	8g\J	.	16g/	.	16ee-\	.	.	.	.	.	.	.	.	.	.	.	.	.	.	.	.	.	.	.	.	.
.	.	.	.	.	16g/JJ	.	16gg\JJ	.	.	.	.	.	.	.	.	.	.	.	.	.	.	.	.	.	.	.	.	.
!LO:LB:g=original	!	!	!	!	!	!	!	!	!	!	!LO:LB:g=original	!	!	!	!LO:LB:g=original	!	!	!	!	!	!	!	!	!	!	!	!	!
=60	=60	=60	=60	=60	=60	=60	=60	=60	=60	=60	=60	=60	=60	=60	=60	=60	=60	=60	=60	=60	=60	=60	=60	=60	=60	=60	=60	=60
*tremolo	*	*	*tremolo	*	*	*	*	*	*	*	*	*	*	*	*	*	*	*	*	*	*	*	*	*	*	*	*	*
!	!	!	!	!	!	!	!	!	!LO:SIC:v:s=2A-\	!	!	!	!	!	!	!	!	!	!	!	!	!	!	!	!	!	!	!
8A-\L	x 6 3	.	8a-\L	.	16e-/LL	.	16cc\LL	.	2A\	-re-	2f\	-re-	2e-\	-re-	2cc\	-re-	2.ryy	2.ryy	2E-/	.	2e-\	2c\	.	2a-\	.	2cc\	.	2ccc\
.	.	.	.	.	16e-/	.	16ff\	.	.	.	.	.	.	.	.	.	.	.	.	.	.	.	.	.	.	.	.	.
8A-\	.	.	8a-\	.	16e-/	.	16ff\	.	.	.	.	.	.	.	.	.	.	.	.	.	.	.	.	.	.	.	.	.
.	.	.	.	.	16e-/	.	16ff\JJ	.	.	.	.	.	.	.	.	.	.	.	.	.	.	.	.	.	.	.	.	.
8A-\	.	.	8a-\	.	16e-/	.	16ff\LL	.	.	.	.	.	.	.	.	.	.	.	.	.	.	.	.	.	.	.	.	.
.	.	.	.	.	16e-/	.	16aa-\	.	.	.	.	.	.	.	.	.	.	.	.	.	.	.	.	.	.	.	.	.
8A-\	.	.	8a-\	.	16e-/	.	16aa-\	.	.	.	.	.	.	.	.	.	.	.	.	.	.	.	.	.	.	.	.	.
.	.	.	.	.	16e-/	.	16aa-\JJ	.	.	.	.	.	.	.	.	.	.	.	.	.	.	.	.	.	.	.	.	.
!	!	!	!	!	!	!	!	!	!LO:SIC:v:s=4A-\	!	!	!	!	!	!	!	!	!	!	!	!	!	!	!	!	!	!	!
8A-\	.	.	8a-\	.	16e-/	.	16aa-\LL	.	4A\	-re	4f\	-re	4e-\	-re	4cc\	-re	.	.	4E-/	.	4e-\	4c\	.	4a-\	.	4cc\	.	4ccc\
.	.	.	.	.	16e-/	.	16ccc\	.	.	.	.	.	.	.	.	.	.	.	.	.	.	.	.	.	.	.	.	.
8A-\J	.	.	8a-\J	.	16e-/	.	16ccc\	.	.	.	.	.	.	.	.	.	.	.	.	.	.	.	.	.	.	.	.	.
.	.	.	.	.	16e-/JJ	.	16ccc\JJ	.	.	.	.	.	.	.	.	.	.	.	.	.	.	.	.	.	.	.	.	.
*Xtremolo	*	*	*Xtremolo	*	*Xtremolo	*	*	*	*	*	*	*	*	*	*	*	*	*	*	*	*	*	*	*	*	*	*	*
!	!	!	!	!	!	!	!LO:LB:g=original	!	!LO:LB:g=original	!	!	!	!	!	!	!	!	!	!	!	!	!	!	!	!	!	!	!LO:LB:g=original
=61	=61	=61	=61	=61	=61	=61	=61	=61	=61	=61	=61	=61	=61	=61	=61	=61	=61	=61	=61	=61	=61	=61	=61	=61	=61	=61	=61	=61
!	!	!	!	!	!	!	!	!	!LO:SIC:v:s=4A-\	!	!	!	!	!	!	!	!	!	!	!	!	!	!	!	!	!	!	!
4A-\	x x 4	.	4a-\	.	4f/	.	8.bb-\L	.	4A\	no-	4f\	no-	4f\	no-	4dd\	no-	2.ryy	2.ryy	4B-/	.	4f\	4d\	.	4a-\	.	4dd\	.	8.bb-\L
.	.	.	.	.	.	.	16aa-\Jk	.	.	.	.	.	.	.	.	.	.	.	.	.	.	.	.	.	.	.	.	16aa-\Jk
4G\	x x 6	.	4g\	.	4g/	.	16gg\LL	.	4G\	-bis	4e-\	-bis	4g\	-bis	4ee-\	-bis	.	.	4e-\	.	4g\	4e-\	.	4g\	.	4ee-\	.	4gg\
.	.	.	.	.	.	.	16bb-\	.	.	.	.	.	.	.	.	.	.	.	.	.	.	.	.	.	.	.	.	.
.	.	.	.	.	.	.	16ee-\	.	.	.	.	.	.	.	.	.	.	.	.	.	.	.	.	.	.	.	.	.
.	.	.	.	.	.	.	16gg\JJ	.	.	.	.	.	.	.	.	.	.	.	.	.	.	.	.	.	.	.	.	.
4r	.	.	4r	.	4r	.	16b-\LL	.	4r	.	4r	.	4r	.	4r	.	.	.	4r	.	4r	4r	.	4r	.	4r	.	4r
.	.	.	.	.	.	.	16ee-\	.	.	.	.	.	.	.	.	.	.	.	.	.	.	.	.	.	.	.	.	.
.	.	.	.	.	.	.	16g\	.	.	.	.	.	.	.	.	.	.	.	.	.	.	.	.	.	.	.	.	.
.	.	.	.	.	.	.	16b-\JJ	.	.	.	.	.	.	.	.	.	.	.	.	.	.	.	.	.	.	.	.	.
=62	=62	=62	=62	=62	=62	=62	=62	=62	=62	=62	=62	=62	=62	=62	=62	=62	=62	=62	=62	=62	=62	=62	=62	=62	=62	=62	=62	=62
!LO:TX:t=P:problem:mixed beam	!	!	!LO:TX:t=P:problem:mixed beam	!	!	!	!	!	!LO:SIC:v:s=4A-\	!	!	!	!	!	!	!	!	!	!	!	!	!	!	!	!	!	!	!
8A-\L	x x 6	.	8a-\L	.	8c/L	.	16bn\LL	.	4A\	no-	4f\	no-	(4a-\	no-	4ff\	no-	2.ryy	2.ryy	4r	.	4r	4f\	.	4ff\	.	4aa-\	.	4r
.	.	.	.	.	.	.	16cc\	.	.	.	.	.	.	.	.	.	.	.	.	.	.	.	.	.	.	.	.	.
8A-\	.	.	8a-\	.	16B-/L	.	16a-\	.	.	.	.	.	.	.	.	.	.	.	.	.	.	.	.	.	.	.	.	.
.	.	.	.	.	16A-/JJ	.	16f\JJ	.	.	.	.	.	.	.	.	.	.	.	.	.	.	.	.	.	.	.	.	.
8B-\	x x 4	.	8b-\	.	16G/LL	.	16e-/LL	.	2B-\	.	4e-\	.	4g\	.	4ee-\	.	.	.	4e-\	.	4g\	4e-\	.	4ee-\	.	4gg\	.	4eee-\
.	.	.	.	.	16B-/	.	16g/	.	.	.	.	.	.	.	.	.	.	.	.	.	.	.	.	.	.	.	.	.
8B-\	.	.	8b-\	.	16B-/	.	16g/	.	.	.	.	.	.	.	.	.	.	.	.	.	.	.	.	.	.	.	.	.
.	.	.	.	.	16B-/JJ	.	16g/JJ	.	.	.	.	.	.	.	.	.	.	.	.	.	.	.	.	.	.	.	.	.
8BB-/	x x 3	.	8B-/	.	16B-/LL	.	16B-/LL	.	.	.	4f\	.	4f\)	.	4dd\	.	.	.	4B-/	.	4f\	4d\	.	4dd\	.	4ff\	.	4ddd\
.	.	.	.	.	16B-/	.	16d/	.	.	.	.	.	.	.	.	.	.	.	.	.	.	.	.	.	.	.	.	.
8BB-/J	.	.	8B-/J	.	16B-/	.	16d/	.	.	.	.	.	.	.	.	.	.	.	.	.	.	.	.	.	.	.	.	.
.	.	.	.	.	16B-/JJ	.	16d/JJ	.	.	.	.	.	.	.	.	.	.	.	.	.	.	.	.	.	.	.	.	.
!	!	!	!LO:LB:g=original	!	!	!	!	!	!	!	!	!	!	!	!	!	!	!	!	!	!	!LO:LB:g=original	!	!	!	!	!	!
=63	=63	=63	=63	=63	=63	=63	=63	=63	=63	=63	=63	=63	=63	=63	=63	=63	=63	=63	=63	=63	=63	=63	=63	=63	=63	=63	=63	=63
!LO:TX:a:t=Solo	!	!	!	!	!	!	!	!	!	!	!	!	!	!	!	!	!	!	!	!	!	!	!	!	!	!	!	!
4E-\	.	.	4e-\	.	8G/L	.	8e-/L	.	4E-\	-bis	4e-\	-bis	4g\	-bis	4ee-\	-bis	2.ryy	2.ryy	4G/	.	4e-\	4e-\	.	4ee-\	.	4ee-\	.	4eee-\
.	.	.	.	.	8g/J	.	8b-/J	.	.	.	.	.	.	.	.	.	.	.	.	.	.	.	.	.	.	.	.	.
*	*	*	*	*	*tremolo	*	*tremolo	*	*	*	*	*	*	*	*	*	*	*	*	*	*	*	*	*	*	*	*	*
!	!	!	!	!LO:DY:Bi:t=p&colon;	!	!LO:DY:rj:Bi:t=p.	!	!	!	!	!	!	!	!	!	!	!	!	!	!	!	!	!	!	!	!	!	!
4r	.	.	4r	p	8e-/L	p	8g/L	.	4r	.	4r	.	4B-/	mi-	4b-\	mi-	.	.	4r	.	4r	4r	.	4B-/	.	4b-\	.	4r
.	.	.	.	.	8g/	.	8b-/	.	.	.	.	.	.	.	.	.	.	.	.	.	.	.	.	.	.	.	.	.
4E-\	.	.	4e-\	.	8e-/	.	8g/	.	4r	.	4r	.	4B-/	-se-	4b-\	-se-	.	.	4r	.	4r	4r	.	4B-/	.	4b-\	.	4r
.	.	.	.	.	8g/J	.	8b-/J	.	.	.	.	.	.	.	.	.	.	.	.	.	.	.	.	.	.	.	.	.
!	!	!	!	!	!	!	!	!	!	!	!	!	!	!	!	!	!	!	!	!	!	!	!	!	!	!LO:LB:g=original	!	!
=64	=64	=64	=64	=64	=64	=64	=64	=64	=64	=64	=64	=64	=64	=64	=64	=64	=64	=64	=64	=64	=64	=64	=64	=64	=64	=64	=64	=64
!	!	!	!	!	!	!	!	!	!LO:TX:a:t=1.	!	!LO:TX:a:t=1	!	!	!	!	!	!	!	!LO:TX:a:t=5	!	!LO:TX:a:t=4	!LO:TX:a:t=1	!	!	!	!	!	!LO:TX:a:t=1
!	!	!	!	!	!	!	!	!	!	!	!	!	!	!	!	!	!	!	!LO:N:vis=00	!	!LO:N:vis=00	!	!	!	!	!	!	!
4BB-/	.	.	4B-/	.	8d/L	.	8f/L	.	2.r	.	2.r	.	2B-/	-re-	2b-\	-re-	2.ryy	2.ryy	0.r	.	0.r	2.r	.	2B-/	.	2b-\	.	2.r
.	.	.	.	.	8f/	.	8b-/	.	.	.	.	.	.	.	.	.	.	.	.	.	.	.	.	.	.	.	.	.
4r	.	.	4r	.	8d/	.	8f/	.	.	.	.	.	.	.	.	.	.	.	.	.	.	.	.	.	.	.	.	.
.	.	.	.	.	8f/	.	8b-/	.	.	.	.	.	.	.	.	.	.	.	.	.	.	.	.	.	.	.	.	.
4BB-/	.	.	4B-/	.	8d/	.	8f/	.	.	.	.	.	8c/	-re	8cc\L	-re	.	.	.	.	.	.	.	8c/L	.	8cc\L	.	.
.	.	.	.	.	8f/J	.	8b-/J	.	.	.	.	.	8d/	no-	8dd\J	no-	.	.	.	.	.	.	.	8d/J	.	8dd\J	.	.
!	!	!	!	!	!	!	!	!	!	!	!	!	!LO:LB:g=original	!	!	!	!	!	!	!	!	!	!	!LO:LB:g=original	!	!	!	!
=65	=65	=65	=65	=65	=65	=65	=65	=65	=65	=65	=65	=65	=65	=65	=65	=65	=65	=65	=65	=65	=65	=65	=65	=65	=65	=65	=65	=65
4E-\	.	.	4B-/	.	8e-/L	.	8g/L	.	4r	.	4r	.	4e-\	-bis.	4ee-\	-bis	2.ryy	2.ryy	.	.	.	4r	.	4e-/	.	4ee-\	.	4r
.	.	.	.	.	8g/	.	8b-/	.	.	.	.	.	.	.	.	.	.	.	.	.	.	.	.	.	.	.	.	.
!	!	!	!	!	!	!	!	!	!	!	!	!	!	!	!	!	!	!	!	!	!	!LO:TX:a:t=Solo	!LO:DY:Bi:t=pia&colon;	!	!	!	!	!
4r	.	.	4r	.	8e-/	.	8g/	.	4BB-/	mi-	4B-\	mi-	4r	.	4r	.	.	.	.	.	.	4B-\	p	4r	.	4r	.	4bb-\
.	.	.	.	.	8g/	.	8b-/	.	.	.	.	.	.	.	.	.	.	.	.	.	.	.	.	.	.	.	.	.
4E-\	.	.	4B-/	.	8e-/	.	8g/	.	4BB-/	-se-	4B-\	-se-	4r	.	4r	.	.	.	.	.	.	4B-\	.	4r	.	4r	.	4bb-\
.	.	.	.	.	8g/J	.	8b-/J	.	.	.	.	.	.	.	.	.	.	.	.	.	.	.	.	.	.	.	.	.
!	!	!	!	!	!LO:LB:g=original	!	!	!	!	!	!	!	!	!	!	!	!	!	!	!	!	!	!	!	!	!	!	!
=66	=66	=66	=66	=66	=66	=66	=66	=66	=66	=66	=66	=66	=66	=66	=66	=66	=66	=66	=66	=66	=66	=66	=66	=66	=66	=66	=66	=66
!	!	!	!	!	!	!	!	!	!	!	!	!	!LO:TX:b:t=3.	!	!LO:TX:a:t=3.	!	!	!	!	!	!	!	!	!LO:TX:a:t=1	!	!LO:TX:a:t=1	!	!
!	!	!	!	!	!	!	!	!	!	!	!	!	!LO:N:vis=0	!	!LO:N:vis=0	!	!	!	!	!	!	!	!	!	!	!	!	!
4BB-/	.	.	4B-/	.	8d/L	.	8f/L	.	2BB-/	-re-	2B-\	-re-	1.r	.	1.r	.	2.ryy	2.ryy	.	.	.	2B-\	.	2.r	.	2.r	.	2bb-\
.	.	.	.	.	8f/	.	8b-/	.	.	.	.	.	.	.	.	.	.	.	.	.	.	.	.	.	.	.	.	.
4r	.	.	4r	.	8d/	.	8f/	.	.	.	.	.	.	.	.	.	.	.	.	.	.	.	.	.	.	.	.	.
.	.	.	.	.	8f/	.	8b-/	.	.	.	.	.	.	.	.	.	.	.	.	.	.	.	.	.	.	.	.	.
4BB-/	.	.	4B-/	.	8d/	.	8f/	.	8C/	-re	8c\	-re	.	.	.	.	.	.	.	.	.	8c\L	.	.	.	.	.	8ccc\L
.	.	.	.	.	8f/J	.	8b-/J	.	8D/	no-	8d\	no-	.	.	.	.	.	.	.	.	.	8d\J	.	.	.	.	.	8ddd\J
*	*	*	*	*	*Xtremolo	*	*Xtremolo	*	*	*	*	*	*	*	*	*	*	*	*	*	*	*	*	*	*	*	*	*
!	!	!	!	!	!	!	!	!	!LO:LB:g=original	!	!	!	!	!	!	!	!	!	!	!	!	!	!	!	!	!	!	!
=67	=67	=67	=67	=67	=67	=67	=67	=67	=67	=67	=67	=67	=67	=67	=67	=67	=67	=67	=67	=67	=67	=67	=67	=67	=67	=67	=67	=67
4E-\	.	.	4e-\	.	4B-/	.	4g/	.	4E-\	-bis.	4e-\	-bis.	.	.	.	.	2.ryy	2.ryy	.	.	.	4e-\	.	4r	.	4r	.	4eee-\
4EE-/	.	.	4E-/	.	4B-/	.	4g/	.	4r	.	4r	.	.	.	.	.	.	.	.	.	.	4e-\	.	4g/	.	4ee-\	.	4eee-\
4EE-/	.	.	4E-/	.	4B-/	.	4g/	.	4r	.	4r	.	.	.	.	.	.	.	.	.	.	4e-\	.	4g/	.	4ee-\	.	4eee-\
=68	=68	=68	=68	=68	=68	=68	=68	=68	=68	=68	=68	=68	=68	=68	=68	=68	=68	=68	=68	=68	=68	=68	=68	=68	=68	=68	=68	=68
!	!	!	!	!	!	!	!	!	!LO:TX:a:t=1.	!	!LO:TX:a:t=1	!	!	!	!	!	!	!	!	!	!LO:TX:t=P:problem:brak t. 68	!	!	!	!	!	!	!
2EE-/	.	.	2E-/	.	2B-/	.	2g/	.	2.r	.	2.r	.	2.r	.	2.r	.	2.ryy	2.ryy	2.r	.	2.ryy	2e-\	.	2g/	.	2ee-\	.	2eee-\
4r	.	.	4r	.	4r	.	4r	.	.	.	.	.	.	.	.	.	.	.	.	.	.	4r	.	4r	.	4r	.	4r
!	!	!	!	!	!	!	!	!	!LO:TX:b:t=Seqve Dona	!	!LO:TX:b:t=Donanobis. Seqve.	!	!LO:TX:b:t=Donabis Verte	!	!	!	!	!	!LO:TX:b:t=Werty Cito Dona nobis	!	!	!LO:TX:b:t=Verte Subito:note=podkreślone falowaną linią	!	!	!	!LO:TX:b:t=Donanobis Verte Citto.	!	!LO:TX:b:t=Donanobis D&colon;P&colon;Citto.
==;	==	==	==	==	==;	==	==;	==	==	==	==;	==	==	==	==;;	==	==	==	==;	==	==	==;;	==	==;	==	==	==	==
*-	*-	*-	*-	*-	*-	*-	*-	*-	*-	*-	*-	*-	*-	*-	*-	*-	*-	*-	*-	*-	*-	*-	*-	*-	*-	*-	*-	*-
!!!system-decoration: [g1][g2][g3][g4][g5]g6
!!!AIN: 1 alto 1 bass 2 clars 2 cor 1 fagot 1 flt 2 organ 1 soprn 1 tenor 1 timpa 1 tromp 2 violn
!!!ENC: Katarzyna Serwa
!!!END: 2022-01-18
!!!ENC: Marcin Jachim
!!!END: 2020-10-14
